!!!COM: Beethoven, Ludwig van
!!!CDT: 1770///-1827///
!!!ODT: 1810///-1811///
!!!OTL: String Quartet No. 11 in F Minor, Op. 95 (Serioso)
!!!OPS: Op. 95
!!!OMV: Mvmt. 4
!!!OMD: Larghetto expressivo - Allegretto agitato
!!!PDT: 1816///
!!!PPP: Vienna
!!!ODE: Nik Zmeskall von Domanovetz gewidmet
!!!MPD: 1814/05//
**kern	**dynam	**kern	**dynam	**kern	**dynam	**kern	**dynam
*staff4	*staff4	*staff3	*staff3	*staff2	*staff2	*staff1	*staff1
*Icello	*Icello	*Iviola	*Iviola	*Ivioln	*Ivioln	*Ivioln	*Ivioln
*clefF4	*clefF4	*clefC3	*clefC3	*clefG2	*clefG2	*clefG2	*clefG2
*k[b-e-a-d-]	*k[b-e-a-d-]	*k[b-e-a-d-]	*k[b-e-a-d-]	*k[b-e-a-d-]	*k[b-e-a-d-]	*k[b-e-a-d-]	*k[b-e-a-d-]
*f:	*f:	*f:	*f:	*f:	*f:	*f:	*f:
*M2/4	*M2/4	*M2/4	*M2/4	*M2/4	*M2/4	*M2/4	*M2/4
*MM40	*MM40	*MM40	*MM40	*MM40	*MM40	*MM40	*MM40
(8En\	.	([8c\	.	(8G/	.	(16.c/LL	.
.	.	.	.	.	.	32cc/JJk	.
=1	=1	=1	=1	=1	=1	=1	=1
8F\L	.	(16.c\LL])	.	8A-/L	.	8a-/L	.
.	.	32d-\Jk	.	.	.	.	.
8G\J)	.	8c\J)	.	8B-/J)	.	8en/J)	.
8r	.	8r	.	8r	.	8r	.
(8En\	.	[8c\	.	(8G/	.	(16.c/LL	.
.	.	.	.	.	.	32cc/JJk	.
=2	=2	=2	=2	=2	=2	=2	=2
8F\L	.	(16.c\LL]	.	8A-/L	.	8a-/L	.
.	.	32d-\Jk	.	.	.	.	.
8G\J)	.	8c\J)	.	8B-/J)	.	8en/J)	.
8r	.	8r	.	8r	.	8r	.
8An\	.	8c\	.	[8f/	.	(16.f\LL	.
.	.	.	.	.	.	32ff\JJk)	.
=3	=3	=3	=3	=3	=3	=3	=3
(8B-\L	.	(8d-\L	.	(16.f/LL]	.	(16ee-\LL	.
.	.	.	.	.	.	16dd-\J	.
.	.	.	.	32b-/Jk	.	.	.
8c\J	.	8f\J)	.	8a-/J)	.	8cc\J)	.
4d-\)	.	(8f\L	.	16a-/LL	.	[8bn\L	.
.	.	.	.	16f/	.	.	.
.	.	8bn\J)	.	16en/	.	(32b\LL]	.
.	.	.	.	.	.	32aa-\	.
.	.	.	.	16f/JJ	.	32gg\	.
.	.	.	.	.	.	32ff\JJJ)	.
=4	=4	=4	=4	=4	=4	=4	=4
8c\L	.	8.cc\L	.	[8a-/L	.	[8ff\L	.
8c\J	.	.	.	(32a-/LL]	.	32ff\LL]	.
.	.	.	.	32g/	.	(32een\	.
.	.	(32cc\LL	.	32a-/	.	32ff\	.
.	.	32a-\JJJ)	.	32f/JJJ)	.	32bn\JJJ)	.
8c\L	.	(16a-\LL	.	(16f/LL	.	(16b\LL	.
.	.	16g\)	.	16en/JJ)	.	16cc\JJ)	.
(32F\LL	.	(32f\L	.	8r	.	8r	.
32En\	.	32en\	.	.	.	.	.
32F\	.	32f\	.	.	.	.	.
32BBn\JJJ)	.	32Bn\JJJ)	.	.	.	.	.
=5	=5	=5	=5	=5	=5	=5	=5
(16BBn/LL	.	(16Bn/LL	.	4r	.	8r	.
16C/J)	.	16c/)	.	.	.	.	.
(8EEn/J	.	(16.C/	.	.	.	[8cc\	.
.	.	32c/JJk)	.	.	.	.	.
8FF/L	.	(8A-/L	.	(16.d-/LL	.	(16cc\LL]	.
.	.	.	.	.	.	16dd-\)	.
.	.	.	.	32dd-/Jk)	.	.	.
[8GG/J)	.	[8C/J) [8B-/	.	(8dd-/J	.	(16.dd-\	.
.	.	.	.	.	.	32ddd-\JJk)	.
=6	=6	=6	=6	=6	=6	=6	=6
(8GG/L]	p	8C/L] 8B-/]	p	16bn\LL	p	(16bbn\LL	p
.	.	.	.	16cc\JJ)	.	16ccc\J)	.
8EEn/J	.	(16.C/L	.	8r	.	[8cc\J	.
.	.	32c/JJk)	.	.	.	.	.
8FF/L	.	(8A-/L	.	(16.d-/LL	.	(16cc\LL]	.
.	.	.	.	.	.	16dd-\)	.
.	.	.	.	32dd-/Jk)	.	.	.
[8GG/J)	.	[8C/J) [8B-/	.	(8dd-/J	.	(16.dd-\	.
.	.	.	.	.	.	32ddd-\JJk)	.
=7	=7	=7	=7	=7	=7	=7	=7
8GG/]	p	8C/] 8B-/]	p	(16bn\LL)	p	(16bbn\LL	p
.	.	.	.	16cc\JJ)	.	16ccc\JJ)	.
4GG/	.	4C/ 4B-/	.	8r	.	8r	.
.	.	.	.	(16b\LL	.	(16bb\LL	.
.	.	.	.	16cc\JJ)	.	16ccc\JJ)	.
[8GG/	.	[8C/ [8B-/	.	8r	.	8r	.
=8	=8	=8	=8	=8	=8	=8	=8
*M6/8	*M6/8	*M6/8	*M6/8	*M6/8	*M6/8	*M6/8	*M6/8
*MM128	*MM128	*MM128	*MM128	*MM128	*MM128	*MM128	*MM128
4GG/]	.	4C/] 4B-/]	.	(8bn\L	.	(8bbn\L	.
.	.	.	.	8cc\J)	.	8ccc\J)	.
8GG/	.	8C/ 8B-/	.	8r	.	8r	.
4r	.	4r	.	(8b\L	.	(8bb\L	.
.	.	.	.	8cc\J)	.	8ccc\J)	.
8GG/	.	8C/ 8B-/	.	8r	.	8r	.
=9	=9	=9	=9	=9	=9	=9	=9
8r	.	8r	.	(16bn\LL	.	(16bbn\LL	.
.	.	.	.	16cc\)	.	16ccc\)	.
8GG/L	.	8C/L 8B-/	.	(16b\	.	(16bb\	.
.	.	.	.	16cc\)	.	16ccc\)	.
8GG/J	.	8C/J 8B-/	.	(16b\	.	(16bb\	.
.	.	.	.	16cc\JJ)	.	16ccc\JJ)	.
8GG/L	.	8C/L 8B-/	.	(16b\LL	.	(16bb\LL	.
.	.	.	.	16cc\)	.	16ccc\)	.
8FF/	.	8C/ 8A-/	.	(16b\	.	(16bb\	.
.	.	.	.	16cc\)	.	16ccc\)	.
8EEn/J	.	8C/J 8G/	.	(16b\	.	(16bb\	.
.	.	.	.	16cc\JJ)	.	16ccc\JJ)	.
=10	=10	=10	=10	=10	=10	=10	=10
8FF/L	p	8C/L 8A-/	p	(16cc\LL	p	(16ccc\LL	p
.	.	.	.	16a-\JJ)	.	16aa-\JJ)	.
(8F/	.	(8A-/	.	8r	.	8r	.
8A-/J)	.	8c/J)	.	8r	.	8r	.
8r	.	8r	.	(16a-/LL	.	(16aa-\LL	.
.	.	.	.	16f/JJ)	.	16ff\JJ)	.
(8F\L	.	(8A-/L	.	8r	.	8r	.
8A-\J)	.	8c/J)	.	8r	.	8r	.
=11	=11	=11	=11	=11	=11	=11	=11
8r	.	8r	.	(16cc\LL	.	(16ccc\LL	.
.	.	.	.	16a-\JJ)	.	16aa-\JJ)	.
(8F\L	.	(8A-/L	.	8r	.	8r	.
8A-\J)	.	8c/J)	.	8r	.	8r	.
8r	.	8r	.	(16a-/LL	.	(16aa-\LL	.
.	.	.	.	16f/J)	.	16ff\J)	.
(8F\L	.	(8A-/L	.	8r	.	8r	.
8A-\J)	.	8c/J)	.	(8f/J	.	(8ff\J	.
=12	=12	=12	=12	=12	=12	=12	=12
8r	.	8r	.	8b-\L	.	8bb-\L	.
(8F\L	.	(8B-\L	.	8cc\)	.	8ccc\)	.
8B-\J)	.	8d-\J)	.	8dd-'\J	.	8ddd-'\J	.
8r	.	8r	.	4cc\	.	4ccc\	.
(8F\L	.	(8A-/L	.	.	.	.	.
8A-\J)	.	8c/J)	.	(8f/	.	(8ff\	.
=13	=13	=13	=13	=13	=13	=13	=13
8r	.	8r	.	8b-\L	.	8bb-\L	.
(8F\L	.	(8B-\L	.	8cc\)	.	8ccc\)	.
8B-\J)	.	8d-\J)	.	8dd-'\J	.	8ddd-'\J	.
8r	.	8r	.	4cc\	.	4ccc\	.
(8F\L	.	(8A-/L	.	.	.	.	.
8A-\J)	.	8c/J)	.	8f/	.	8ff\	.
=14	=14	=14	=14	=14	=14	=14	=14
4r	.	8C/L	.	(8a-/L	.	(8ff\L	.
.	.	(8C/	.	8g/	.	8een\	.
8r	.	8c/J)	.	8f/J)	.	8ff\J	.
4r	.	8r	.	(8f/L	.	8aa-\L	.
.	.	(8C/L	.	8en/	.	8gg\	.
(8a-\	.	8c/J)	.	8f/J)	.	8aa-\J)	.
=15	=15	=15	=15	=15	=15	=15	=15
.	.	.	.	.	.	ggq/	.
8g\L	.	8r	.	(8en/L	.	(4ccc\	.
8en\	.	(8C/L	.	8g/	.	.	.
8g\J)	.	8c/J)	.	8e/J)	.	16bb-\LL	.
.	.	.	.	.	.	16gg\JJ)	.
8f\L	.	8r	.	(8a-/L	.	(8bb-\L	.
8F\	.	(8C/L	.	8A-/	.	8aa-\)	.
8F\J	.	8c/J)	.	8A-/J)	.	8ff'\J	.
=16	=16	=16	=16	=16	=16	=16	=16
(8C/L	.	(8G/L	.	(8B-/L	.	(8ff\L	.
8D-/	.	8G/	.	8b-/	.	8ee-\	.
8C/J	.	8F/J)	.	8a-/J)	.	8ff\J	.
8FF/L	.	(8F/L	.	(8a-\L	.	8aa-\L	.
8EEn/	.	8B-/	.	8dd-\	.	8gg\	.
8FF/J)	.	8A-/J)	.	8cc\J)	.	8aa-\J)	.
=17	=17	=17	=17	=17	=17	=17	=17
.	.	.	.	.	.	ggq/	.
(8EEn/L	.	(8G\L	.	(8g\L	.	(4ccc\	.
8DD-/	.	8en\	.	8een\	.	.	.
8CC/J	.	16g\L	.	16gg\L	.	16bb-\LL	.
.	.	16e\JJ)	.	16ee\JJ	.	16gg\JJ)	.
8FF/L	.	(8e\L	.	8gg/L	.	(8bb-\L	.
8AA-/	.	8cc\)	.	8ff/)	.	8aa-\)	.
8BBn/J)	.	8F\J	.	8A-/J	.	8ff'\J	.
=18	=18	=18	=18	=18	=18	=18	=18
16C/LL	f	16En/LL	f	16G/LL	f	(16ccc\LL	f
16C/	.	16E/	.	16G/	.	16bb-\	.
16C/	.	16F/	.	16A-/	.	16gg\	.
16C/	.	16F/	.	16A-/	.	16aa-\	.
16C/	.	16F/	.	16A-/	.	16een\	.
16C/JJ	.	16F/JJ	.	16A-/JJ	.	16ff\JJ	.
16C/LL	.	16E/LL	.	16G/LL	.	16bn/LL	.
16C/	.	16E/	.	16G/	.	16cc/	.
16C/	.	16F/	.	16A-/	.	16g/	.
16C/	.	16F/	.	16A-/	.	16a-/	.
16C/	.	16F/	.	16A-/	.	16en/	.
16C/JJ	.	16F/JJ	.	16A-/JJ	.	16f/JJ)	.
=19	=19	=19	=19	=19	=19	=19	=19
4.C/	.	4.En/	.	4.G/	.	(16c/LL	.
.	.	.	.	.	.	16d-/	.
.	.	.	.	.	.	16dn/	.
.	.	.	.	.	.	16e-/	.
.	.	.	.	.	.	16en/	.
.	.	.	.	.	.	16f/JJ	.
4r	.	4r	.	4r	.	16f#/LL	.
.	.	.	.	.	.	16g/	.
.	.	.	.	.	.	16a-/	.
.	.	.	.	.	.	16an/	.
8r	.	8r	.	8r	.	16b-/	.
.	.	.	.	.	.	16bn/JJ	.
=20	=20	=20	=20	=20	=20	=20	=20
4r	.	4r	.	4r	.	16cc\LL	.
.	.	.	.	.	.	16dd-\	.
.	.	.	.	.	.	16ddn\	.
.	.	.	.	.	.	16ee-\	.
8r	.	8r	.	8r	.	16een\	.
.	.	.	.	.	.	16ff\JJ)	.
8r	.	8r	.	8r	.	(16gg\LL	.
.	.	.	.	.	.	16aa-\	.
16c\LL	.	16c\LL	.	16cc\LL	.	16aan\	.
16c\	.	16c\	.	16cc\	.	16bb-\	.
16c\	.	16c\	.	16cc\	.	16bbn\	.
16c\JJ	.	16c\JJ	.	16cc\JJ	.	16ccc\JJ)	.
=21	=21	=21	=21	=21	=21	=21	=21
4d-\	ff	4d-\	ff	4dd-\	ff	4ddd-\	ff
4r	.	4r	.	4r	.	4r	.
4r	.	4r	.	4r	.	4r	.
=22	=22	=22	=22	=22	=22	=22	=22
4r	.	4r	.	2.g;/	pp	2.b-;\	pp
8r	.	8r	.	.	.	.	.
4.En;\	.	4.d-;\	.	.	.	.	.
=23	=23	=23	=23	=23	=23	=23	=23
8FF/L	pp	(16c/LL	pp	4.A-/ 4.f/	.	(16cc\LL	.
.	.	16A-/JJ)	.	.	.	16a-\JJ)	.
(8FF/	.	8r	.	.	.	8r	.
8AA-/J)	.	8r	.	.	.	(16a-/LL	.
.	.	.	.	.	.	16f/JJ)	.
8r	.	(16A-/LL	.	(16ff\LL	.	8r	.
.	.	16F/JJ)	.	16aa-\	.	.	.
(8FF/L	.	8r	.	16gg\	.	8r	.
.	.	.	.	16ff\	.	.	.
8AA-/J)	.	8r	.	16een\	.	8r	.
.	.	.	.	16ff\JJ)	.	.	.
=24	=24	=24	=24	=24	=24	=24	=24
8r	.	(16c/LL	.	4.A-/ 4.f/	.	(16cc\LL	.
.	.	16A-/JJ)	.	.	.	16a-\JJ)	.
(8FF/L	.	8r	.	.	.	8r	.
8AA-/J)	.	8r	.	.	.	8r	.
8r	.	(16A-/LL	.	(16ff\LL	.	(16a-/LL	.
.	.	16F/J)	.	16aa-\	.	16f/J)	.
(8FF/L	.	8r	.	16gg\	.	8r	.
.	.	.	.	16ff\	.	.	.
8AA-/J)	.	(8F/J	.	16een\	.	(8f/J	.
.	.	.	.	16ff\JJ)	.	.	.
=25	=25	=25	=25	=25	=25	=25	=25
8r	.	8B-\L	.	8r	.	8b-\L	.
(8FF/L	.	8c\)	.	(16een\LL	.	8cc\)	.
.	.	.	.	16bb-\	.	.	.
8BB-/J)	.	8d-'\J	.	16gg\	.	8dd-'\J	.
.	.	.	.	16ee\JJ)	.	.	.
8r	.	4c\	.	8r	.	4cc\	.
(8FF/L	.	.	.	(16ff\LL	.	.	.
.	.	.	.	16ccc\	.	.	.
8AA-/J)	.	(8F/	.	16aa-\	.	(8f/	.
.	.	.	.	16ff\JJ)	.	.	.
=26	=26	=26	=26	=26	=26	=26	=26
8r	.	8B-\L	.	8r	.	8b-\L	.
(8FF/L	.	8c\)	.	(16een\LL	.	8cc\)	.
.	.	.	.	16bb-\	.	.	.
8BB-/J)	.	8d-'\J	.	16gg\	.	8dd-'\J	.
.	.	.	.	16ee\JJ)	.	.	.
8r	.	4c\	.	8r	.	4cc\	.
(8FF/L	.	.	.	(16ff\LL	.	.	.
.	.	.	.	16ccc\	.	.	.
8AA-/J)	.	8F/	.	16aa-\	.	8f/	.
.	.	.	.	16ff\JJ)	.	.	.
=27	=27	=27	=27	=27	=27	=27	=27
8CC/L	.	(8F/L	.	8r	.	(8f/L	.
(8CC/	.	8En/	.	(16gg\LL	.	8en/	.
.	.	.	.	16ccc\J	.	.	.
8C/J)	.	8F/J	.	8aa-\J)	.	8f/J	.
8r	.	8A-/L	.	8r	.	8a-/L	.
(8CC/L	.	8G/	.	(16een\LL	.	8g/	.
.	.	.	.	16ccc\J	.	.	.
8C/J)	.	8A-/J)	.	8ff\J)	.	8a-/J)	.
=28	=28	=28	=28	=28	=28	=28	=28
8r	.	(4c\	.	8een\	.	(4cc\	.
(8CC/L	.	.	.	[4eeen\	.	.	.
8C/J)	.	16B-/LL	.	.	.	16b-/LL	.
.	.	16G/JJ)	.	.	.	16g/JJ)	.
8r	.	(8B-/L	.	8eee\L]	.	(8b-/L	.
(8CC/L	.	8A-/)	.	8fff\	.	8a-/)	.
8C/J)	.	8F'/J	.	8aa-'\J	.	8f'/J	.
=29	=29	=29	=29	=29	=29	=29	=29
8r	.	(8F/L	.	8r	.	(8f/L	.
(8CC/L	.	8En/	.	(16gg\LL	.	8en/	.
.	.	.	.	16ccc\J	.	.	.
8C/J)	.	8F/J	.	8aa-\J)	.	8f/J	.
8r	.	8A-/L	.	8r	.	8a-/L	.
(8CC/L	.	8G/)	.	(16een\LL	.	8g/J)	.
.	.	.	.	16ccc\J)	.	.	.
8C/J)	.	(16c/L	.	(8an\J	.	8r	.
.	.	16e-/JJ)	.	.	.	.	.
=30	=30	=30	=30	=30	=30	=30	=30
4r	.	(16d-\LL	.	8cc\L	.	4r	.
.	.	16f\	.	.	.	.	.
.	.	16d-\	.	8bn\	.	.	.
.	.	16f\	.	.	.	.	.
8r	.	16dn\	.	8b\J	.	8r	.
.	.	16f\JJ)	.	.	.	.	.
4r	.	(16e-\LL	.	8ddn/L	.	4r	.
.	.	16g\	.	.	.	.	.
.	.	16e-\	.	8cc/)	.	.	.
.	.	16g\J)	.	.	.	.	.
8EEn/	.	[8C/J	.	(16G/L	.	(8cc#\	.
.	.	.	.	16c/JJ)	.	.	.
=31	=31	=31	=31	=31	=31	=31	=31
8FF/L	.	8C/L]	.	(16A-/LL	.	8ee-\L	.
.	.	.	.	16c/	.	.	.
(8FF/	.	(16C/L	.	16A-/	.	8ddn\	.
.	.	16c/	.	16c/	.	.	.
8GG/J	.	16C/	.	16B-/	.	8een\J	.
.	.	16c/JJ)	.	16c/JJ)	.	.	.
8AA-/L)	.	(16C/LL	.	(16c/LL	.	8gg\L	.
.	.	16c/	.	16f/	.	.	.
(8AA-/	.	16C/	.	16c/	.	8ff\	.
.	.	16c/	.	16f/	.	.	.
8AAn/J	.	16C/	.	16c/	.	8gg-\J	.
.	.	16c/JJ)	.	16f#/JJ)	.	.	.
=32	=32	=32	=32	=32	=32	=32	=32
8BBn/L)	.	16Dn/LL	.	(16dn/LL	.	8aa-\L	.
.	.	16G/	.	16g/	.	.	.
(8BB/	.	16D/	.	16d/	.	8gg\	.
.	.	16G/	.	16g/	.	.	.
8C/J)	.	16E-/	.	16e-/	.	8aa-\J)	.
.	.	16G/JJ	.	16g/JJ)	.	.	.
4CC/ 4C/	ff	16E-/LL	ff	16f#/LL 16an/	ff	4an\ 4aan\	ff
.	.	16F#/	.	16An/	.	.	.
.	.	16An/	.	16c/	.	.	.
.	.	16A/	.	16c/	.	.	.
8r	.	16A/	.	16c/	.	8r	.
.	.	16A/JJ	.	16c/JJ	.	.	.
=33	=33	=33	=33	=33	=33	=33	=33
4r	.	16An/LL	.	16c/LL	.	4r	.
.	.	16F#/	.	16An/	.	.	.
.	.	16A/	.	16c/	.	.	.
.	.	16A/	.	16c/	.	.	.
8r	.	16A/	.	16c/	.	8r	.
.	.	16A/JJ	.	16c/JJ	.	.	.
.	.	.	.	.	.	ee-q/	.
4CC/ 4C/	.	16A/LL	.	16c/LL	.	4eee-\	.
.	.	16F#/	.	16A/	.	.	.
.	.	16A/	.	16c/	.	.	.
.	.	16A/	.	16c/	.	.	.
8r	.	16A/	.	16c/	.	8r	.
.	.	16A/JJ	.	16c/JJ	.	.	.
=34	=34	=34	=34	=34	=34	=34	=34
4r	.	16An/LL	p	16c/LL	p	4r	.
.	.	16F#/	.	16An/	.	.	.
.	.	16A/	.	16c/	.	.	.
.	.	16A/	.	16c/	.	.	.
8r	.	16A/	.	16c/	.	8r	.
.	.	16A/JJ	.	16c/JJ	.	.	.
4CC/ 4C/	p	16A/LL	.	16c/LL	.	4An/	.
.	.	16F#/	.	16A/	.	.	.
.	.	16A/	.	16c/	.	.	.
.	.	16A/	.	16c/	.	.	.
8r	.	16A/	.	16c/	.	8r	p
.	.	16A/JJ	.	16c/JJ	.	.	.
=35	=35	=35	=35	=35	=35	=35	=35
.	.	.	.	.	.	ee-q/	.
4CC/	.	16An/LL	.	16c/LL	.	4eee-\	.
.	.	16F#/	.	16An/	.	.	.
.	.	16A/	.	16c/	.	.	.
.	.	16A/	.	16c/	.	.	.
8r	.	16A/	.	16c/	.	8r	.
.	.	16A/JJ	.	16c/JJ	.	.	.
.	.	.	.	.	.	Anq/	.
4C/	.	16A/LL	.	16c/LL	.	4an/	.
.	.	16F#/	.	16A/	.	.	.
.	.	16A/	.	16c/	.	.	.
.	.	16A/	.	16c/	.	.	.
8r	.	16A/	.	16c/	.	8r	.
.	.	16A/JJ	.	16c/JJ	.	.	.
=36	=36	=36	=36	=36	=36	=36	=36
4r	.	16A-/LL	f	16Bn/LL 16dn/	f	4r	.
.	.	16F/	.	16A-/ 16d/	.	.	.
.	.	16A-/	.	16B/ 16d/	.	.	.
.	.	16A-/	.	16B/ 16d/	.	.	.
8r	.	16A-/	.	16B/ 16d/	.	8r	.
.	.	16A-/JJ	.	16B/JJ 16d/	.	.	.
4BBn/	f	16A-/LL	.	16B/LL 16d/	.	4f\ 4ddn\ 4aa-\	f
.	.	16F/	.	16A-/ 16d/	.	.	.
.	.	16A-/	.	16B/ 16d/	.	.	.
.	.	16A-/	.	16B/ 16d/	.	.	.
8r	.	16A-/	.	16B/ 16d/	.	8r	.
.	.	16A-/JJ	.	16B/JJ 16d/	.	.	.
=37	=37	=37	=37	=37	=37	=37	=37
4r	.	16A-/LL	.	16Bn/LL 16dn/	.	4r	.
.	.	16F/	.	16A-/ 16d/	.	.	.
.	.	16A-/	.	16B/ 16d/	.	.	.
.	.	16A-/	.	16B/ 16d/	.	.	.
8r	.	16A-/	.	16B/ 16d/	.	8r	.
.	.	16A-/JJ	.	16B/JJ 16d/	.	.	.
.	.	.	.	.	.	dd-q/	.
4BBn/	.	16A-/LL	.	16B/LL 16d/	.	4fff\	.
.	.	16F/	.	16A-/ 16d/	.	.	.
.	.	16A-/	.	16B/ 16d/	.	.	.
.	.	16A-/	.	16B/ 16d/	.	.	.
8r	.	16A-/	.	16B/ 16d/	.	8r	.
.	.	16A-/JJ	.	16B/JJ 16d/	.	.	.
=38	=38	=38	=38	=38	=38	=38	=38
4r	.	16A-/LL	p	16Bn/LL 16dn/	p	4r	.
.	.	16F/	.	16A-/ 16d/	.	.	.
.	.	16A-/	.	16B/ 16d/	.	.	.
.	.	16A-/	.	16B/ 16d/	.	.	.
8r	.	16A-/	.	16B/ 16d/	.	8r	.
.	.	16A-/JJ	.	16B/JJ 16d/	.	.	.
4Bn\	p	16A-/LL	.	16B/LL 16d/	.	4a-/	p
.	.	16F/	.	16A-/ 16d/	.	.	.
.	.	16A-/	.	16B/ 16d/	.	.	.
.	.	16A-/	.	16B/ 16d/	.	.	.
8r	.	16A-/	.	16B/ 16d/	.	8r	.
.	.	16A-/JJ	.	16B/JJ 16d/	.	.	.
=39	=39	=39	=39	=39	=39	=39	=39
.	.	.	.	.	.	d-q/	.
4BBn/	.	16A-/LL	.	16Bn/LL 16dn/	.	4ff\	.
.	.	16F/	.	16A-/ 16d/	.	.	.
.	.	16A-/	.	16B/ 16d/	.	.	.
.	.	16A-/	.	16B/ 16d/	.	.	.
8r	.	16A-/	.	16B/ 16d/	.	8r	.
.	.	16A-/JJ	.	16B/JJ 16d/	.	.	.
.	.	.	.	.	.	B-q/	.
8BB\L	.	16A-/LL	.	16B/LL 16d/	.	4bn\	.
.	.	16F/	.	16A-/ 16d/	.	.	.
16dn\L	.	16f/	.	16a-/	.	.	.
16d\	.	16f/	.	16a-/	.	.	.
16d\	.	16f/	.	16a-/	.	8r	.
16d\JJ	.	16f/JJ	.	16a-/JJ	.	.	.
=40	=40	=40	=40	=40	=40	=40	=40
8dn\L	.	8f\L	.	(16g\LL	.	[4.gg\	.
.	.	.	.	16bn\	.	.	.
(8d\	.	(8f\	.	16ddn\	.	.	.
.	.	.	.	16b\	.	.	.
8c\J	.	8e-\J	.	16cc\	.	.	.
.	.	.	.	16ee-\JJ)	.	.	.
8Bn\L)	.	8dn/L)	.	(8g/	.	(16gg\LL]	.
.	.	.	.	.	.	16bbn\	.
(8GG\	.	(8F/	.	4gg\)	.	16dddn\	.
.	.	.	.	.	.	16bb\	.
8C\J	.	8E-/J	.	.	.	16ccc\	.
.	.	.	.	.	.	16eee-\JJ)	.
=41	=41	=41	=41	=41	=41	=41	=41
8BBn\L)	.	8Dn/L)	.	(16g\LL	.	[4.gg\	.
.	.	.	.	16bn\	.	.	.
(8dn\	.	(8f/	.	16ddn\	.	.	.
.	.	.	.	16b\	.	.	.
8c\J	.	8e-/J	.	16cc\	.	.	.
.	.	.	.	16ee-\JJ)	.	.	.
8Bn\L)	.	8dn/L)	.	(8g/	.	(16gg\LL]	.
.	.	.	.	.	.	16bbn\	.
8GG\	.	8F/	.	4gg\)	.	16dddn\	.
.	.	.	.	.	.	16bb\	.
16C\L 16B\	.	16E-/L	.	.	.	16ccc\	.
16c\JJ	.	16e-/JJ	.	.	.	16eee-\JJ)	.
=42	=42	=42	=42	=42	=42	=42	=42
16F\LL	p	16c\LL 16dn\	p	16aa-\LL	p	(16ccc\LL	p
16F\	.	16c\ 16d\	.	16a-\	.	16gg\	.
16F\	.	16c\ 16d\	.	16a-\	.	16aa-\	.
16F\	.	16c\ 16d\	.	16a-\	.	16gg\	.
16F\	.	16c\ 16d\	.	16a-\	.	16aa-\	.
16F\JJ	.	16c\JJ 16d\	.	16a-\JJ	.	16een\JJ	.
16F\LL	.	16c\LL 16d\	.	16a-/LL	.	16ff\LL	.
16F\	.	16c\ 16d\	.	16a-/	.	16dd-\	.
16F\	.	16c\ 16d\	.	16a-/	.	16ddn\	.
16F\	.	16c\ 16d\	.	16a-/	.	16ff\	.
16F\	.	16c\ 16d\	.	16a-/	.	16gg\	.
16F\JJ	.	16c\JJ 16d\	.	16a-/JJ	.	16aa-\JJ)	.
=43	=43	=43	=43	=43	=43	=43	=43
4.G\	.	4.c\ 4.e-\	.	4.g/	.	(16gg\LL	.
.	.	.	.	.	.	16aa-\	.
.	.	.	.	.	.	16aan\	.
.	.	.	.	.	.	16bb-\	.
.	.	.	.	.	.	16bbn\	.
.	.	.	.	.	.	16ccc\JJ	.
4r	.	4r	.	4r	.	16ddd-\LL	.
.	.	.	.	.	.	16dddn\	.
.	.	.	.	.	.	16eee-\	.
.	.	.	.	.	.	16eeen\	.
8r	.	8r	.	8r	.	16fff\	.
.	.	.	.	.	.	16fff#\JJ)	.
=44	=44	=44	=44	=44	=44	=44	=44
2.r	.	4E-/	.	4g/	.	16ggg\LL	.
.	.	.	.	.	.	16gg\	.
.	.	.	.	.	.	16ggg\	.
.	.	.	.	.	.	16ggg\	.
.	.	8E-/	.	8g/	.	16ggg\	.
.	.	.	.	.	.	16ggg\JJ	.
.	.	4E-/	.	(8g\L	.	16ggg\LL	.
.	.	.	.	.	.	16gg\	.
.	.	.	.	8cc\	.	16ggg\	.
.	.	.	.	.	.	16ggg\	.
.	.	8C/	.	8ee-\J)	.	16ggg\	.
.	.	.	.	.	.	16ggg\JJ	.
=45	=45	=45	=45	=45	=45	=45	=45
8r	.	4F/	.	(4ddn\	.	16ggg\LL	.
.	.	.	.	.	.	16ggg\	.
(8G\L	.	.	.	.	.	16ggg\	.
.	.	.	.	.	.	16ggg\	.
8Bn\J	.	8Dn/	.	8bn\	.	16ggg\	.
.	.	.	.	.	.	16ggg\JJ	.
8dn\L	.	4Bn/	.	4.g/)	.	16ggg\LL	.
.	.	.	.	.	.	16gg\	.
8g\	.	.	.	.	.	16ggg\	.
.	.	.	.	.	.	16bbn\	.
8f\J)	.	(8B/	.	.	.	16ggg\	.
.	.	.	.	.	.	16dddn\JJ	.
=46	=46	=46	=46	=46	=46	=46	=46
(8e-\L	.	8c/L)	.	4g/	.	16ggg\LL	.
.	.	.	.	.	.	16gg\	.
8dn\	.	8E-/	.	.	.	16ggg\	.
.	.	.	.	.	.	16ggg\	.
8c\J)	.	8E-/J	.	8g/	.	16ggg\	.
.	.	.	.	.	.	16ggg\JJ	.
4r	.	4E-/	.	(8g\L	.	16ggg\LL	.
.	.	.	.	.	.	16gg\	.
.	.	.	.	8cc\	.	16ggg\	.
.	.	.	.	.	.	16ggg\	.
8r	.	8C/	.	8ee-\J)	.	16ggg\	.
.	.	.	.	.	.	16ggg\JJ	.
=47	=47	=47	=47	=47	=47	=47	=47
8r	.	4F/	.	(4ddn\	.	16ggg\LL	.
.	.	.	.	.	.	16gg\	.
(8G\L	.	.	.	.	.	16ggg\	.
.	.	.	.	.	.	16ggg\	.
8Bn\J	.	8Dn/	.	8bn\	.	16ggg\	.
.	.	.	.	.	.	16ggg\JJ	.
8dn\L	.	(8Bn/L	.	8g/L	.	(16ggg\LL	.
.	.	.	.	.	.	16gg\	.
8g\)	.	8dn/)	.	8f/)	.	16ggg\	.
.	.	.	.	.	.	16bbn\)	.
8GG\J	.	[8G/J	.	8dn/J 8b/	.	16ggg\	.
.	.	.	.	.	.	16ggg\JJ	.
=48	=48	=48	=48	=48	=48	=48	=48
[4.C/	.	4.G/_	.	[4.e-/ [4.cc/	.	(16ggg\LL	.
.	.	.	.	.	.	16gg\	.
.	.	.	.	.	.	16ggg\	.
.	.	.	.	.	.	16fff\	.
.	.	.	.	.	.	16eee-\	.
.	.	.	.	.	.	16dddn\JJ	.
4C/]	.	4G/]	.	4e-/] 4cc/]	.	16ccc\LL	.
.	.	.	.	.	.	16bb-\	.
.	.	.	.	.	.	16aa-\	.
.	.	.	.	.	.	16gg\	.
[8CC/	.	[8C/	.	[8c/	.	16ff\	.
.	.	.	.	.	.	16ee-\JJ)	.
=49	=49	=49	=49	=49	=49	=49	=49
8CC/]	.	8C/]	.	8c/]	.	(16ddn\LL	.
.	.	.	.	.	.	16cc\	.
8r	.	8r	.	8r	.	16bn\	.
.	.	.	.	.	.	16cc\	.
8r	.	8r	.	8r	.	16ee-\	.
.	.	.	.	.	.	16cc\JJ	.
4r	.	4r	.	4r	.	16een\LL	.
.	.	.	.	.	.	16cc\	.
.	.	.	.	.	.	16ff\	.
.	.	.	.	.	.	16cc\	.
8r	.	[8c\	pp	8r	.	16ff#\	.
.	.	.	.	.	.	16cc\JJ)	.
=50	=50	=50	=50	=50	=50	=50	=50
4r	.	8c\]	.	4r	.	(16gg\LL	.
.	.	.	.	.	.	16cc\	.
.	.	8r	.	.	.	16aa-\	.
.	.	.	.	.	.	16cc\	.
8r	.	8r	.	8r	.	16aan\	.
.	.	.	.	.	.	16cc\JJ	.
(16B-\LL	.	4r	.	4r	.	16bb-\LL	.
16G\	.	.	.	.	.	16cc\	.
16En\	.	.	.	.	.	16bbn\	.
16C\	.	.	.	.	.	16cc\	.
16BB-\	.	8r	.	[8c/	p	16ccc\	.
16GG\JJ)	.	.	.	.	.	16cc\JJ)	.
=51	=51	=51	=51	=51	=51	=51	=51
8FF/L	.	4.F/ 4.A-/	.	4.c/]	.	(16ccc\LL	.
.	.	.	.	.	.	16aa-\JJ)	.
(8FF/	.	.	.	.	.	8r	.
8AA-/J)	.	.	.	.	.	8r	.
8r	.	(16A-/LL	.	(16c/LL	.	(16aa-\LL	.
.	.	16c/J)	.	16f/J)	.	16ff\JJ)	.
(8FF/L	.	8r	.	8r	.	8r	.
8AA-/J)	.	(8F/J 8A-/	.	(8c/J	.	8r	.
=52	=52	=52	=52	=52	=52	=52	=52
8r	.	4.F/) 4.A-/	.	4.c/)	.	(16ccc\LL	.
.	.	.	.	.	.	16aa-\JJ)	.
(8FF/L	.	.	.	.	.	8r	.
8AA-/J)	.	.	.	.	.	8r	.
8r	.	(16A-/LL	.	(16c/LL	.	16aa-\LL	.
.	.	16c/JJ)	.	16f/JJ)	.	16ff\J	.
(8FF/L	.	8r	.	8r	.	8r	.
8AA-/J)	.	8r	.	8r	.	8ff\J	.
=53	=53	=53	=53	=53	=53	=53	=53
8r	.	(16B-\LL	.	(16d-/LL	.	8bb-\L	.
.	.	16d-\JJ)	.	16f/JJ)	.	.	.
(8FF/L	.	8r	.	8r	.	8ccc\	.
8BB-/J)	.	8r	.	8r	.	&(8ddd-\J&)	.
8r	.	(16A-/LL	.	(16c/LL	.	4ccc\	.
.	.	16c/JJ)	.	16f/JJ)	.	.	.
(8FF/L	.	8r	.	8r	.	.	.
8AA-/J)	.	8r	.	8r	.	(8ff\	.
=54	=54	=54	=54	=54	=54	=54	=54
8r	.	(16B-\LL	.	(16d-/LL	.	8bb-\L	.
.	.	16d-\JJ)	.	16f/JJ)	.	.	.
(8FF/L	.	8r	.	8r	.	8ccc\)	.
8BB-/J)	.	8r	.	8r	.	8ddd-'\J	.
8r	.	(16A-/LL	.	(16c/LL	.	4ccc\	.
.	.	16c/J)	.	16f/JJ)	.	.	.
(8FF/L	.	8r	.	8r	.	.	.
8AA-/J	.	(8C/J	.	8r	.	8r	.
=55	=55	=55	=55	=55	=55	=55	=55
8C\L	.	8E-/L	.	4r	.	4r	.
8D-\)	.	8F/)	.	.	.	.	.
8E-'\J	.	8G-'/J	.	8r	.	8r	.
4.D-\	.	4.F/	.	4r	.	4r	.
.	.	.	.	(8d-/	.	(8f/	.
=56	=56	=56	=56	=56	=56	=56	=56
4r	.	4r	.	8e-/L	.	8g-/L	.
.	.	.	.	8f/)	.	8a-/)	.
8r	.	8r	.	8g-'/J	.	8b-'/J	.
4r	.	4r	.	4.f/	.	4.a-/	.
(8A-\	.	(8c\	.	.	.	.	.
=57	=57	=57	=57	=57	=57	=57	=57
8B-\L	.	8d-\L	.	4r	.	4r	.
8c\)	.	8e-\)	.	.	.	.	.
8d-'\J	.	8f'\J	.	8r	.	8r	.
4.c\	.	4.e-\	.	4r	.	4r	.
.	.	.	.	(8cc\	.	(8ee-\	.
=58	=58	=58	=58	=58	=58	=58	=58
4r	.	4r	.	8dd-\L	.	8ff\L	.
.	.	.	.	8ee-\)	.	8gg-\)	.
8r	.	(8c\	.	8ff'\J	.	8aa-'\J	.
4r	.	8e-\L	.	4ee-\	.	4gg-\	.
.	.	8f\)	.	.	.	.	.
(8AAn/	.	[8An\J [8g-\	.	[8c/ [8e-/	.	(8gg-\	.
=59	=59	=59	=59	=59	=59	=59	=59
8C\L	.	4A\] 4g-\]	.	4.c/] 4.e-/]	.	8ee-\L	.
8D-\)	.	.	.	.	.	8dd-\)	.
8E-'\J	.	(8c\	.	.	.	8cc'\J	.
4r	.	8e-\L	.	4r	.	4r	.
.	.	8f\)	.	.	.	.	.
(8AAn/	.	[8An\J [8g-\	.	[8c/ [8e-/	.	(8gg-\	.
=60	=60	=60	=60	=60	=60	=60	=60
8C\L	.	4A\] 4g-\]	.	4.c/] 4.e-/]	.	8ee-\L	.
8D-\)	.	.	.	.	.	8dd-\)	.
8E-'\J	.	(8c\	.	.	.	8cc'\J	.
4r	.	8dn\L	.	4r	.	4r	.
.	.	8e-\)	.	.	.	.	.
(8AA-/	.	[8A-\J [8f\	.	[8Bn/ [8dn/	.	(8ff\	.
=61	=61	=61	=61	=61	=61	=61	=61
8BBn/L	.	4A-\] 4f\]	.	4.B/] 4.d/]	.	8ddn\L	.
8C/)	.	.	.	.	.	8cc\)	.
8Dn'/J	.	(8Bn/	.	.	.	8bn'\J	.
4r	.	8dn\L	.	4r	.	4r	.
.	.	8e-\)	.	.	.	.	.
(8AA-/	.	[8An\J [8f\	.	[8Bn/ [8dn/	.	(8ff\	.
=62	=62	=62	=62	=62	=62	=62	=62
8BBn/L	.	4A\] 4f\]	.	4B/] 4d/]	.	8ddn\L	.
8C/)	.	.	.	.	.	8cc\)	.
8Dn'/J	.	(8dn\	.	(8Bn/	.	8bn'\J	.
4r	.	8f\L	.	8dn/L	.	4r	.
.	.	8g-\)	.	8e-/)	.	.	.
(8FF/	.	[8Bn\J [8a-\	.	[8d/J [8f/	.	(8aa-\	.
=63	=63	=63	=63	=63	=63	=63	=63
8AA-/L	.	4B\] 4a-\]	.	4d/] 4f/]	.	8ff\L	.
8BB-/)	.	.	.	.	.	8ee-\)	.
8BBn'/J	.	(8dn\	.	(8Bn/	.	8ddn'\J	.
4r	.	8f\L	.	8dn/L	.	4r	.
.	.	8g-\)	.	8e-/)	.	.	.
(8FF/	.	[8Bn\J [8a-\	.	[8d/J [8f/	.	(8aa-\	.
=64	=64	=64	=64	=64	=64	=64	=64
8AA-/L	.	4B\] 4a-\]	.	4d/] 4f/]	.	8ff\L	.
8BB-/)	.	.	.	.	.	8ee-\)	.
8BBn'/J	.	(8Bn/	.	(8f/	.	8ddn'\J	.
4r	.	8f\L	.	8a-/L	.	4r	.
.	.	8g-\)	.	8b-/)	.	.	.
[8FF/	.	[8d-\J	.	(8a-/J 8cc-/	.	(8aa-\	.
=65	=65	=65	=65	=65	=65	=65	=65
4.FF/]	.	4.d-\]	.	4.a-\) 4.cc-\	.	8ff\L	.
.	.	.	.	.	.	8ee-\	.
.	.	.	.	.	.	16dd-\L	.
.	.	.	.	.	.	16ddd-\JJ)	.
16GG-/LL	.	16d-\LL	.	16b-\LL	.	(8ddd-\L	.
16G-/	.	16d-\	.	16b-\	.	.	.
16G-/	.	16d-\	.	16b-\	.	8aan\	.
16G-/	.	16d-\	.	16b-\	.	.	.
16G-/	.	16d-\	.	16b-\	.	8bb-\J)	.
16G-/JJ	.	16d-\JJ	.	16b-\JJ	.	.	.
=66	=66	=66	=66	=66	=66	=66	=66
4.G-\	p	4.e-\	p	4.b-\	p	(16ff\LL	p
.	.	.	.	.	.	16gg-\	.
.	.	.	.	.	.	16ddn\	.
.	.	.	.	.	.	16ee-\	.
.	.	.	.	.	.	16gg-\	.
.	.	.	.	.	.	16bb-\JJ)	.
4.g-\	.	4.b-\	.	4.ee-\	.	(16ff\LL	.
.	.	.	.	.	.	16gg-\	.
.	.	.	.	.	.	16dd\	.
.	.	.	.	.	.	16ee-\	.
.	.	.	.	.	.	16gg-\	.
.	.	.	.	.	.	16bb-\JJ)	.
=67	=67	=67	=67	=67	=67	=67	=67
8a-\L	pp	(16dd-\LL	pp	(16ff\LL	pp	(16aa-\LL	pp
.	.	16a-\JJ)	.	16dd-\JJ)	.	16ff\JJ)	.
(8A-\	.	8r	.	8r	.	8r	.
8d-\J)	.	8r	.	8r	.	8r	.
8r	.	(16a-\LL	.	(16dd-\LL	.	(16ff\LL	.
.	.	16f\JJ)	.	16a-\JJ)	.	16dd-\JJ)	.
(8A-\L	.	8r	.	8r	.	8r	.
8d-\J)	.	8r	.	8r	.	8r	.
=68	=68	=68	=68	=68	=68	=68	=68
8r	.	(16a-\LL	.	(16cc\LL	.	(16gg-\LL	.
.	.	16g-\JJ)	.	16a-\JJ)	.	16ee-\JJ)	.
(8A-\L	.	8r	.	8r	.	8r	.
8e-\J)	.	8r	.	8r	.	8r	.
8r	.	(16a-\LL	.	(16cc\LL	.	(16ccc\LL	.
.	.	16g-\JJ)	.	16a-\JJ)	.	16ee-\JJ)	.
(8A-\L	.	8r	.	8r	.	8r	.
8e-\J)	.	8r	.	8r	.	8r	.
=69	=69	=69	=69	=69	=69	=69	=69
8r	.	(16f\LL	.	(16a-/LL	.	(16ddd-\LL	.
.	.	16d-\JJ)	.	16f/JJ)	.	16ff\JJ)	.
(8d-\L	.	8r	.	8r	.	8r	.
8f\J)	.	8r	.	8r	.	8r	.
8r	.	(16a-\LL	.	(16b-/LL	.	(16dddn\LL	.
.	.	16f\JJ)	.	16a-/JJ)	.	16ff\JJ)	.
(8B-\L	.	8r	.	8r	.	8r	.
8f\J)	.	8r	.	8r	.	8r	.
=70	=70	=70	=70	=70	=70	=70	=70
8r	.	(16g-\LL	.	(16b-/LL	.	(16eee-\LL	.
.	.	16e-\JJ)	.	16g-/JJ)	.	16gg-\JJ)	.
(8e-\L	.	8r	.	8r	.	8r	.
8g-\J)	.	8r	.	8r	.	8r	.
8r	.	(16cc\LL	.	(16ff\LL	.	(16fff\LL	.
.	.	16an\JJ)	.	16cc\JJ)	.	16ff\JJ)	.
(8An\L	.	8r	.	8r	.	8r	.
8an\J)	.	8r	.	8r	.	8r	.
=71	=71	=71	=71	=71	=71	=71	=71
*clefC4	*clefC4	*	*	*	*	*	*
8B-\L	.	(16dd-\LL	.	(16ff\LL	.	(16fff\LL	.
.	.	16b-\J)	.	16dd-\J)	.	16ff\J)	.
8b-\	.	(8ddn\	.	(8ff\	.	8r	.
8b-\J	.	8ff\J	.	8aa-\J	.	(8bb-\J	.
[4.b-\	.	8ee-\L	.	8gg-\L	.	8eee-\L	.
.	.	8an\)	.	8ff\)	.	8fff\)	.
.	.	8a'\J	.	8ee-'\J	.	8ggg-'\J	.
=72	=72	=72	=72	=72	=72	=72	=72
8b-\L]	.	(8b-\L	.	(8dd-\L	.	4fff\	.
8b-\	.	8ddn\	.	8ff\	.	.	.
8b-\J	.	8ff\J	.	8aa-\J	.	(8bb-\	.
[4.b-\	.	8ee-\L	.	8gg-\L	.	8eee-\L	.
.	.	8an\)	.	8ff\)	.	8fff\)	.
.	.	8a'\J	.	8ee-'\J	.	8ggg-'\J	.
=73	=73	=73	=73	=73	=73	=73	=73
4b-\]	.	(8b-\L	.	(8dd-\L	.	4fff\	.
.	.	8dd-\)	.	8een\	.	.	.
8b-\	.	8dd-\J	.	8ff\J)	.	8bb-\	.
(8b-\L	.	(8dd-\L	.	8ff\L	.	(8bb-\L	.
8cc\	.	8ee-\	.	8ff\	.	8aa-\	.
8b-\J)	.	8dd-\J)	.	8ff\J	.	8bb-\J)	.
=74	=74	=74	=74	=74	=74	=74	=74
(8b-\L	.	(8f\L	.	(8dd-\L	.	(8ddd-\L	.
8an\	.	8g-\	.	8ee-\	.	8ccc\	.
8b-\J)	.	8f\J	.	8dd-\J)	.	8ddd-\J)	.
.	.	.	.	.	.	cccq/	.
4.a\	.	8F/L	.	4ee-\	.	(4fff\	.
.	.	8G-/	.	.	.	.	.
.	.	8F/J)	.	8f/ 8cc/	.	16eee-\LL	.
.	.	.	.	.	.	16ccc\JJ)	.
=75	=75	=75	=75	=75	=75	=75	=75
8b-\L	p	(8B-/L	p	8f/L 8dd-/	p	(8eee-\L	p
(8b-\	.	8G/	.	(8dd-/	.	8ddd-\	.
8g\J)	.	8En/J)	.	8cc/J)	.	8ccc\J)	.
8g\L	.	(8E/L	.	(8cc\L	.	(8ccc\L	.
(8g\	.	8C/	.	8b-\	.	8bb-\	.
8f\J)	.	8c/J)	.	8a-\J)	.	8aa-\J)	.
=76	=76	=76	=76	=76	=76	=76	=76
8f\L	.	8C/L	.	(8a-/L	.	(8aa-\L	.
8en\	.	(8C/	.	8B-/	.	8gg\	.
8f\J	.	8c/J)	.	8A-/J	.	8ff\J)	.
8a-\L	.	8r	.	8c/L)	.	(8ff\L	.
8g\	.	(8C/L	.	(8dd-/	.	8een\	.
8a-\J	.	8c/J)	.	8cc/J)	.	8ff\J)	.
=77	=77	=77	=77	=77	=77	=77	=77
(4cc\	.	8r	.	(8a-\L	.	(8ff\L	.
.	.	(8C/L	.	8g\	.	8een\	.
16b-\LL	.	8c/J)	.	8gg\J	.	8eeen\J	.
16g\JJ)	.	.	.	.	.	.	.
(8b-\L	p	8r	p	4aa-\)	p	4.fff\)	p
8a-\J)	.	(8C/L	.	.	.	.	.
8r	.	8F/J)	.	8f/	.	.	.
=78	=78	=78	=78	=78	=78	=78	=78
*clefF4	*clefF4	*	*	*	*	*	*
8CC/L	.	(8F/L	.	(8f/L	.	4r	.
(8CC/	.	8En/	.	8en/	.	.	.
8C/J)	.	8F/J	.	8f/J	.	8r	.
8r	.	8A-/L	.	8a-/L	.	4r	.
(8CC/L	.	8G/	.	8g/	.	.	.
8C/J)	.	8A-/J)	.	8a-/J)	.	8een\	.
=79	=79	=79	=79	=79	=79	=79	=79
8r	.	(4c\	.	(4cc\	.	(8een\L	.
(8CC/L	.	.	.	.	.	8ddn\	.
8C/J)	.	16B-/LL	.	16b-/LL	.	8ee\J	.
.	.	16G/JJ)	.	16g/JJ)	.	.	.
8r	.	(8B-/L	.	(8b-/L	.	8gg\L	.
(8CC/L	.	8A-/J)	.	8a-/)	.	8ff\	.
8C/J)	.	8r	.	(16c/L	.	8gg\J	.
.	.	.	.	16en/JJ)	.	.	.
=80	=80	=80	=80	=80	=80	=80	=80
4r	.	4r	.	(16c/LL	.	8aa-\L	.
.	.	.	.	16f/	.	.	.
.	.	.	.	16c/	.	8gg\	.
.	.	.	.	16f/	.	.	.
8r	.	8r	.	16c/	.	8aan\J	.
.	.	.	.	16f/JJ)	.	.	.
4r	.	4r	.	(16d-/LL	.	8ccc\L	.
.	.	.	.	16f/	.	.	.
.	.	.	.	16d-/	.	8bb-\)	.
.	.	.	.	16f/J)	.	.	.
(8DDn/	.	(16F/LL	.	(8bn/J	.	(8bbn\J	.
.	.	16G/JJ)	.	.	.	.	.
=81	=81	=81	=81	=81	=81	=81	=81
8EEn/L)	.	(16C/LL	.	8dd-\L	.	8ddd-\L	.
.	.	16c/	.	.	.	.	.
(8EE/	.	16C/	.	8cc\	.	8ccc\	.
.	.	16c/	.	.	.	.	.
8FF/J	.	16C/	.	8ddn\J	.	8dddn\J	.
.	.	16c/JJ)	.	.	.	.	.
8GG/L)	.	(16C/LL	.	8ee-\L	.	8eee-\L	.
.	.	16c/	.	.	.	.	.
8GG/	.	16C/	.	8dd\)	.	8ddd\)	.
.	.	16c/	.	.	.	.	.
(8GG/J	.	16C/	.	(8een\J	.	(8eeen\J	.
.	.	16c/JJ)	.	.	.	.	.
=82	=82	=82	=82	=82	=82	=82	=82
8AA-\L)	.	(16C/LL	.	8ff\L	.	8fff\L	.
.	.	16c/	.	.	.	.	.
8A-\	.	16C/	.	8een\	.	8eeen\	.
.	.	16c/	.	.	.	.	.
8A-\J	.	16C/	.	8ff\J)	.	8fff\J)	.
.	.	16c/JJ)	.	.	.	.	.
.	.	.	.	.	.	aa-q/	.
4BBn/	ff	16F/LL	ff	16aa-/LL	ff	4.aaa-\	ff
.	.	16F/	.	16A-/ 16dn/	.	.	.
.	.	16A-/	.	16Bn/ 16d/	.	.	.
.	.	16A-/	.	16B/ 16d/	.	.	.
8r	.	16A-/	.	16B/ 16d/	.	.	.
.	.	16A-/JJ	.	16B/JJ 16d/	.	.	.
=83	=83	=83	=83	=83	=83	=83	=83
4r	.	16A-/LL	.	16Bn/LL 16dn/	.	4r	.
.	.	16F/	.	16A-/ 16d/	.	.	.
.	.	16A-/	.	16B/ 16d/	.	.	.
.	.	16A-/	.	16B/ 16d/	.	.	.
8r	.	16A-/	.	16B/ 16d/	.	8r	.
.	.	16A-/JJ	.	16B/JJ 16d/	.	.	.
4BBn/	.	16A-/LL	.	16B/LL 16d/	.	4A-/ 4f/ 4ddn/	.
.	.	16F/	.	16A-/ 16d/	.	.	.
.	.	16A-/	.	16B/ 16d/	.	.	.
.	.	16A-/	.	16B/ 16d/	.	.	.
8r	.	16A-/	.	16B/ 16d/	.	8r	.
.	.	16A-/JJ	.	16B/JJ 16d/	.	.	.
=84	=84	=84	=84	=84	=84	=84	=84
4r	.	16A-/LL	p	16Bn/LL 16dn/	p	4r	.
.	.	16F/	.	16A-/ 16d/	.	.	.
.	.	16A-/	.	16B/ 16d/	.	.	.
.	.	16A-/	.	16B/ 16d/	.	.	.
8r	.	16A-/	.	16B/ 16d/	.	8r	.
.	.	16A-/JJ	.	16B/JJ 16d/	.	.	.
4Bn\	p	16A-/LL	.	16B/LL 16d/	.	4ff\	p
.	.	16F/	.	16A-/ 16d/	.	.	.
.	.	16A-/	.	16B/ 16d/	.	.	.
.	.	16A-/	.	16B/ 16d/	.	.	.
8r	.	16A-/	.	16B/ 16d/	.	8r	.
.	.	16A-/JJ	.	16B/JJ 16d/	.	.	.
=85	=85	=85	=85	=85	=85	=85	=85
.	.	.	.	.	.	dd-q/	.
4BBn/	.	16A-/LL	.	16Bn/LL 16dn/	.	4dddn\	.
.	.	16F/	.	16A-/ 16d/	.	.	.
.	.	16A-/	.	16B/ 16d/	.	.	.
.	.	16A-/	.	16B/ 16d/	.	.	.
8r	.	16A-/	.	16B/ 16d/	.	8r	.
.	.	16A-/JJ	.	16B/JJ 16d/	.	.	.
.	.	.	.	.	.	d-q/	.
4BB/	.	16A-/LL	.	16B/LL 16d/	.	4ddn\	.
.	.	16F/	.	16A-/ 16d/	.	.	.
.	.	16f/	.	16a-/	.	.	.
.	.	16f/	.	16a-/	.	.	.
8r	.	16f/	.	16a-/	.	8r	.
.	.	16f/JJ	.	16a-/JJ	.	.	.
=86	=86	=86	=86	=86	=86	=86	=86
4r	.	16en\LL	ff	16g/LL	ff	4r	.
.	.	16B-\	.	16G/ 16en/	.	.	.
.	.	16d-\	.	16B-/ 16e/	.	.	.
.	.	16d-\	.	16B-/ 16e/	.	.	.
8r	.	16d-\	.	16B-/ 16e/	.	8r	.
.	.	16d-\JJ	.	16B-/JJ 16e/	.	.	.
4GG/	ff	16d-\LL	.	16B-/LL 16e/	.	4g\ 4een\ 4ddd-\	ff
.	.	16B-\	.	16G/ 16e/	.	.	.
.	.	16d-\	.	16B-/ 16e/	.	.	.
.	.	16d-\	.	16B-/ 16e/	.	.	.
8r	.	16d-\	.	16B-/ 16e/	.	8r	.
.	.	16d-\JJ	.	16B-/JJ 16e/	.	.	.
=87	=87	=87	=87	=87	=87	=87	=87
4r	.	16d-\LL	.	16B-/LL 16en/	.	4r	.
.	.	16B-\	.	16G/ 16e/	.	.	.
.	.	16d-\	.	16B-/ 16e/	.	.	.
.	.	16d-\	.	16B-/ 16e/	.	.	.
8r	.	16d-\	.	16B-/ 16e/	.	8r	.
.	.	16d-\JJ	.	16B-/JJ 16e/	.	.	.
4G\	.	16d-\LL	.	16B-/LL 16e/	.	4G/ 4en/	.
.	.	16B-\	.	16G/ 16e/	.	.	.
.	.	16d-\	.	16B-/ 16e/	.	.	.
.	.	16d-\	.	16B-/ 16e/	.	.	.
8r	.	16d-\	.	16B-/ 16e/	.	8r	.
.	.	16d-\JJ	.	16B-/JJ 16e/	.	.	.
=88	=88	=88	=88	=88	=88	=88	=88
4r	.	16d-\LL	p	16B-/LL 16en/	p	4r	.
.	.	16B-\	.	16G/ 16e/	.	.	.
.	.	16d-\	.	16B-/ 16e/	.	.	.
.	.	16d-\	.	16B-/ 16e/	.	.	.
8r	.	16d-\	.	16B-/ 16e/	.	8r	.
.	.	16d-\JJ	.	16B-/JJ 16e/	.	.	.
4G\	p	16d-\LL	.	16B-/LL 16e/	.	4een\	p
.	.	16B-\	.	16G/ 16e/	.	.	.
.	.	16d-\	.	16B-/ 16e/	.	.	.
.	.	16d-\	.	16B-/ 16e/	.	.	.
8r	.	16d-\	.	16B-/ 16e/	.	8r	.
.	.	16d-\JJ	.	16B-/JJ 16e/	.	.	.
=89	=89	=89	=89	=89	=89	=89	=89
.	.	.	.	.	.	dd-q/	.
4GG/	.	16d-\LL	.	16B-/LL 16en/	.	4ddd-\	.
.	.	16B-\	.	16G/ 16e/	.	.	.
.	.	16d-\	.	16B-/ 16e/	.	.	.
.	.	16d-\	.	16B-/ 16e/	.	.	.
.	.	.	.	.	.	dnq/	.
8r	.	16d-\	.	16B-/ 16e/	.	4dd-\	.
.	.	16d-\JJ	.	16B-/JJ 16e/	.	.	.
8GG/L	.	16d-/LL	.	16B-/LL 16e/	.	.	.
.	.	16B-/	.	16G/ 16e/	.	.	.
16G/L	.	16B-/	.	16d-/	.	8r	.
16G/	.	16B-/	.	16d-/	.	.	.
16G/	.	16B-/	.	16d-/	.	8r	.
16G/JJ	.	16B-/JJ	.	16d-/JJ	.	.	.
=90	=90	=90	=90	=90	=90	=90	=90
8G\L	.	8B-\L	.	(16c/LL	.	[4.cc\	.
.	.	.	.	16en/	.	.	.
(8c\	.	(8b-\	.	16g/	.	.	.
.	.	.	.	16e/	.	.	.
8f\J	.	8a-\J	.	16f/	.	.	.
.	.	.	.	16a-/JJ)	.	.	.
8en\L)	.	8g\L)	.	(4c/	.	(16cc\LL]	.
.	.	.	.	.	.	16een\	.
(8C\	.	(8B-\	.	.	.	16gg\	.
.	.	.	.	.	.	16ee\	.
8F\J	.	8A-\J	.	8cc\)	.	16ff\	.
.	.	.	.	.	.	16aa-\JJ)	.
=91	=91	=91	=91	=91	=91	=91	=91
8En\L)	.	8G\L)	.	(16c/LL	.	[4.cc\	.
.	.	.	.	16en/	.	.	.
(8c\	.	(8b-\	.	16g/	.	.	.
.	.	.	.	16e/	.	.	.
8f\J	.	8a-\J	.	16f/	.	.	.
.	.	.	.	16a-/JJ)	.	.	.
8en\L)	.	8g\L)	.	(8c/	.	(16cc\LL]	.
.	.	.	.	.	.	16een\	.
8C\	.	(8B-\	.	4cc\)	.	16gg\	.
.	.	.	.	.	.	16ee\	.
16F\L	.	16A-\L	.	.	.	16ff\	.
16F\JJ	.	16f\JJ)	.	.	.	16aa-\JJ)	.
=92	=92	=92	=92	=92	=92	=92	=92
16B-\LL	p	16d-\LL 16f\	p	16dd-/LL	p	(16ff\LL	p
16B-\	.	16d-\ 16f\	.	16g/	.	16cc\	.
16B-\	.	16d-\ 16f\	.	16g/	.	16dd-\	.
16B-\	.	16d-\ 16f\	.	16g/	.	16cc\	.
16B-\	.	16d-\ 16f\	.	16g/	.	16dd-\	.
16B-\JJ	.	16d-\JJ 16f\	.	16g/JJ	.	16an\JJ	.
16B-\LL	.	16d-\LL 16f\	.	16g\LL	.	16b-/LL	.
16B-\	.	16d-\ 16f\	.	16dd-\	.	16f#/	.
16B-\	.	16d-\ 16f\	.	16dd-\	.	16g/	.
16B-\	.	16d-\ 16f\	.	16dd-\	.	16b-/	.
16B-\	.	16d-\ 16f\	.	16dd-\	.	16cc/	.
16B-\JJ	.	16d-\JJ 16f\	.	16g\JJ	.	16dd-/JJ)	.
=93	=93	=93	=93	=93	=93	=93	=93
4c-\	.	4f-\	.	4a-/	.	(16cc\LL	.
.	.	.	.	.	.	16dd-\	.
.	.	.	.	.	.	16ddn\	.
.	.	.	.	.	.	16ee-\	.
8r	.	8r	.	8r	.	16een\	.
.	.	.	.	.	.	16ff\JJ	.
4r	.	4r	.	4r	.	16ff#\LL	.
.	.	.	.	.	.	16gg\	.
.	.	.	.	.	.	16aa-\	.
.	.	.	.	.	.	16aan\	.
8r	.	8r	.	8r	.	16bb-\	.
.	.	.	.	.	.	16bbn\JJ)	.
=94	=94	=94	=94	=94	=94	=94	=94
*clefC4	*clefC4	*	*	*	*	*	*
4c\	.	4A-/	.	2.r	.	16ccc\LL	.
.	.	.	.	.	.	16cc\	.
.	.	.	.	.	.	16ccc\	.
.	.	.	.	.	.	16ccc\	.
8c\	.	8A-/	.	.	.	16ccc\	.
.	.	.	.	.	.	16ccc\JJ	.
(8c\L	.	4A-/	.	.	.	16ccc\LL	.
.	.	.	.	.	.	16cc\	.
8f\	.	.	.	.	.	16ccc\	.
.	.	.	.	.	.	16ccc\	.
8a-\J)	.	8F/	.	.	.	16ccc\	.
.	.	.	.	.	.	16ccc\JJ	.
=95	=95	=95	=95	=95	=95	=95	=95
(4g\	.	4B-/	.	8r	.	16ccc\LL	.
.	.	.	.	.	.	16cc\	.
.	.	.	.	(8cc\L	.	16ccc\	.
.	.	.	.	.	.	16ccc\	.
8en\	.	8G/	.	8een\J	.	16ccc\	.
.	.	.	.	.	.	16ccc\JJ	.
4.c\)	.	4en\	.	8gg\L	.	(16ccc\LL	.
.	.	.	.	.	.	16cc\	.
.	.	.	.	8ccc\	.	16ccc\	.
.	.	.	.	.	.	16een\	.
.	.	8En/	.	8bb-\J)	.	16ccc\	.
.	.	.	.	.	.	16gg\JJ)	.
=96	=96	=96	=96	=96	=96	=96	=96
4c\	.	8F/L	.	(8aa-\L	.	16ccc\LL	.
.	.	.	.	.	.	16cc\	.
.	.	8A-/	.	8gg\	.	16ccc\	.
.	.	.	.	.	.	16ccc\	.
8c\	.	8A-/J	.	8ff\J)	.	16ccc\	.
.	.	.	.	.	.	16ccc\JJ	.
(8c\L	.	4A-/	.	4r	.	16ccc\LL	.
.	.	.	.	.	.	16cc\	.
8f\	.	.	.	.	.	16ccc\	.
.	.	.	.	.	.	16ccc\	.
8a-\J)	.	8F/	.	8r	.	16ccc\	.
.	.	.	.	.	.	16ccc\JJ	.
=97	=97	=97	=97	=97	=97	=97	=97
(4g\	.	4A-/	.	8r	.	16ccc\LL	.
.	.	.	.	.	.	16cc\	.
.	.	.	.	(8cc\L	.	16ccc\	.
.	.	.	.	.	.	16ccc\	.
8en\	.	8F/	.	8een\J	.	16ccc\	.
.	.	.	.	.	.	16ccc\JJ	.
8c/L)	.	8en/L	.	8gg/L	.	(16ccc\LL	.
.	.	.	.	.	.	16cc\	.
*clefF4	*clefF4	*	*	*	*	*	*
8CC/	.	8En/	.	8ccc/)	.	16ccc\	.
.	.	.	.	.	.	16een\	.
8CC/J	.	[8c/J	.	8G/J 8en/	.	16ccc\	.
.	.	.	.	.	.	16gg\JJ)	.
=98	=98	=98	=98	=98	=98	=98	=98
(16FF\LL	.	4.c\]	.	4.A-/ 4.f/	.	(16ccc\LL	p
16AA-\	.	.	.	.	.	16aa-\JJ)	.
16C\	.	.	.	.	.	8r	.
16F\	.	.	.	.	.	.	.
16A-\	.	.	.	.	.	8r	.
16c\JJ)	.	.	.	.	.	.	.
4r	.	(16F\LL	.	(16A-/LL	.	(16aa-\LL	.
.	.	16A-\	.	16c/	.	16ff\JJ)	.
.	.	16c\	.	16f/	.	8r	.
.	.	16f\	.	16a-/	.	.	.
8r	.	16a-\	.	16cc/	.	8r	.
.	.	16f\JJ)	.	16a-/JJ)	.	.	.
=99	=99	=99	=99	=99	=99	=99	=99
(16FF\LL	.	4.c\	.	4.A-/ 4.f/	.	(16ccc\LL	.
16AA-\	.	.	.	.	.	16aa-\JJ)	.
16C\	.	.	.	.	.	8r	.
16F\	.	.	.	.	.	.	.
16A-\	.	.	.	.	.	8r	.
16c\JJ)	.	.	.	.	.	.	.
4r	.	(16F\LL	.	(16A-/LL	.	(16aa-\LL	.
.	.	16A-\	.	16c/	.	16ff\J)	.
.	.	16c\	.	16f/	.	8r	.
.	.	16f\	.	16a-/	.	.	.
8r	.	16a-\	.	16cc/	.	(8ff\J	.
.	.	16an\JJ)	.	16cc/JJ)	.	.	.
=100	=100	=100	=100	=100	=100	=100	=100
(16FF\LL	.	4.g\ 4.b-\	.	4.en/ 4.dd-/	.	8bb-\L	.
16BB-\	.	.	.	.	.	.	.
16D-\	.	.	.	.	.	8ccc\)	.
16F\	.	.	.	.	.	.	.
16B-\	.	.	.	.	.	8ddd-'\J	.
16d-\JJ)	.	.	.	.	.	.	.
4r	.	(16F\LL	.	(16A-/LL	.	4ccc\	.
.	.	16A-\	.	16c/	.	.	.
.	.	16c\	.	16f/	.	.	.
.	.	16f\	.	16a-/	.	.	.
8r	.	16a-\	.	16cc/	.	(8ff\	.
.	.	16an\JJ)	.	16cc/JJ)	.	.	.
=101	=101	=101	=101	=101	=101	=101	=101
(16FF\LL	.	4.g\ 4.b-\	.	4.en/ 4.dd-/	.	8bb-\L	.
16BB-\	.	.	.	.	.	.	.
16D-\	.	.	.	.	.	8ccc\)	.
16F\	.	.	.	.	.	.	.
16B-\	.	.	.	.	.	8ddd-'\J	.
16d-\JJ)	.	.	.	.	.	.	.
4r	.	(16F\LL	.	(16A-/LL	.	4ccc\	.
.	.	16A-\	.	16c/	.	.	.
.	.	16c\	.	16f/	.	.	.
.	.	16f\	.	16a-/	.	.	.
*clefC4	*clefC4	*	*	*	*	*	*
8f\	.	16a-\)	.	16cc/	.	8ccc'\	.
.	.	16F\JJ	.	16a-/JJ)	.	.	.
=102	=102	=102	=102	=102	=102	=102	=102
(8f\L	.	8C/L	.	(16a-/LL	.	(8ccc\L	.
.	.	.	.	16cc/	.	.	.
8en\	.	(8C/	.	16g/	.	8bb-\	.
.	.	.	.	16cc/	.	.	.
8f\J)	.	8c/J)	.	16a-/	.	8aa-\J)	.
.	.	.	.	16cc/JJ)	.	.	.
(8a-\L	.	8r	.	(16f/LL	.	(8aa-\L	.
.	.	.	.	16cc/	.	.	.
8g\	.	(8C/L	.	16en/	.	8gg\	.
.	.	.	.	16cc/	.	.	.
8a-\J)	.	8c/J)	.	16f/	.	8ff\J)	.
.	.	.	.	16cc/JJ)	.	.	.
=103	=103	=103	=103	=103	=103	=103	=103
(4cc\	.	8r	.	(16g/LL	.	(8een\L	.
.	.	.	.	16cc/	.	.	.
.	.	(8C/L	.	16en/	.	8ccc\	.
.	.	.	.	16cc/	.	.	.
16b-\LL	.	8c/J)	.	16g/	.	8eeen\J)	.
16g\JJ)	.	.	.	16cc/JJ)	.	.	.
(8b-\L	.	(8C/L	.	(16g/LL	.	(8eee\L	.
.	.	.	.	16cc/	.	.	.
8a-\)	.	8F/)	.	16f/	.	8fff\)	.
.	.	.	.	16cc/	.	.	.
8f\J	.	8F/J	.	16a-/	.	8cc\J	.
.	.	.	.	16cc/JJ)	.	.	.
=104	=104	=104	=104	=104	=104	=104	=104
(8f\L	p	4E-/	p	4an/	p	4.cc\	p
8en\	.	.	.	.	.	.	.
8f\J)	.	8r	.	8r	.	.	.
4r	.	4r	.	4r	.	(8a-/L	.
.	.	.	.	.	.	8g/	.
8r	.	8r	.	8r	.	8an/J)	.
=105	=105	=105	=105	=105	=105	=105	=105
(8f\L	.	4D-/	.	4f/ 4b-/	.	4.ff\	.
8en\	.	.	.	.	.	.	.
8f\J)	.	8r	.	8r	.	.	.
4r	.	4r	.	4r	.	(8cc\L	.
.	.	.	.	.	.	8b-\	.
8r	.	8r	.	8r	.	8bn\J)	.
=106	=106	=106	=106	=106	=106	=106	=106
(8a-\L	pp	4f\	pp	4bn\	pp	4.ddn\	pp
8f#\	.	.	.	.	.	.	.
8g\J)	.	8r	.	8r	.	.	.
4r	.	4r	.	4r	.	(8cc\L	.
.	.	.	.	.	.	8b-\	.
8r	.	8r	.	8r	.	8bn\J)	.
=107	=107	=107	=107	=107	=107	=107	=107
(8g\L	.	4en\	.	4cc\	.	4.gg\	.
8f#\	.	.	.	.	.	.	.
8g\J)	.	8r	.	8r	.	.	.
4r	.	4r	.	4r	.	(8ddn\L	.
.	.	.	.	.	.	8bn\	.
8r	.	8r	.	8r	.	8cc\J)	.
=108	=108	=108	=108	=108	=108	=108	=108
*clefF4	*clefF4	*	*	*	*	*	*
[2.DD-/	pp	2.r	.	2.r	.	(16dd-\LL	pp
.	.	.	.	.	.	16b-\JJ)	.
.	.	.	.	.	.	8r	.
.	.	.	.	.	.	8r	.
.	.	.	.	.	.	(16b-/LL	.
.	.	.	.	.	.	16g/JJ)	.
.	.	.	.	.	.	8r	.
.	.	.	.	.	.	8r	.
=109	=109	=109	=109	=109	=109	=109	=109
2.DD-/]	.	2.En/ 2.G/	.	2.een\	.	(16dd-\LL	.
.	.	.	.	.	.	16b-\JJ)	.
.	.	.	.	.	.	8r	.
.	.	.	.	.	.	8r	.
.	.	.	.	.	.	16b-/LL	.
.	.	.	.	.	.	16g/JJ	.
.	.	.	.	.	.	8r	.
.	.	.	.	.	.	8r	.
=110	=110	=110	=110	=110	=110	=110	=110
.	.	.	.	.	.	fq/LL	.
.	.	.	.	.	.	anq/JJ	.
2.DD-/	f	2.F/	f	2.A-/ 2.f/	f	4.ff\	f
.	.	.	.	.	.	(16aa-\LL	.
.	.	.	.	.	.	16ff\J)	.
.	.	.	.	.	.	8ff\J	.
.	.	.	.	.	.	8r	.
=111	=111	=111	=111	=111	=111	=111	=111
2.BB-/	.	2.F/ 2.B-/	.	2.d-/ 2.f/	.	4.b-\ 4.ff\	.
.	.	.	.	.	.	(16bb-\LL	.
.	.	.	.	.	.	16ff\J)	.
.	.	.	.	.	.	8ff\J	.
.	.	.	.	.	.	8r	.
=112	=112	=112	=112	=112	=112	=112	=112
2.AAn/	.	2.F/ 2.c/	.	2.f/ 2.cc/	.	4.f\ 4.cc\ 4.ff\	.
.	.	.	.	.	.	(16ccc\LL	.
.	.	.	.	.	.	16ff\J)	.
.	.	.	.	.	.	8ff\J	.
.	.	.	.	.	.	8r	.
=113	=113	=113	=113	=113	=113	=113	=113
8BB-/	.	8F/ 8B-/	.	8f/ 8dd-/	.	(16ddd-\LL	.
.	.	.	.	.	.	16ff\J)	.
8r	.	8r	.	8r	.	8ff\J	.
8r	.	8r	.	8r	.	8r	.
8C/	.	8C/ 8c/	.	8en/ 8cc/	.	(16ccc\LL	.
.	.	.	.	.	.	16een\J)	.
8r	.	8r	.	8r	.	8ee\J	.
8r	.	8r	.	8r	.	8r	.
=114	=114	=114	=114	=114	=114	=114	=114
[4.D-\	.	[4.F/	.	[4.A-/ [4.f/	.	4d-/	.
.	.	.	.	.	.	[8ff\	.
4D-\]	.	4F/]	.	4A-/] 4f/]	.	8.ff\L]	.
.	.	.	.	.	.	(16ff\L	.
8D-\	.	8F/	.	8A-/ 8f/	.	16aa-\	.
.	.	.	.	.	.	16ff\JJ)	.
=115	=115	=115	=115	=115	=115	=115	=115
[4.BB-/	.	[4.F/ [4.B-/	.	[4.d-/ [4.f/	.	4B-/	.
.	.	.	.	.	.	[8ff\	.
4BB-/]	.	4F/] 4B-/]	.	4d-/] 4f/]	.	8.ff\L]	.
.	.	.	.	.	.	(16ff\L	.
8BB-/	.	8F/ 8B-/	.	8d-/ 8f/	.	16bb-\	.
.	.	.	.	.	.	16ff\JJ)	.
=116	=116	=116	=116	=116	=116	=116	=116
[4.AAn/	.	[4.F/ [4.c/	.	[4.f/ [4.cc/	.	4An/	.
.	.	.	.	.	.	[8ff\	.
4AA/]	.	4F/] 4c/]	.	4f/] 4cc/]	.	8.ff\L]	.
.	.	.	.	.	.	(16ff\L	.
8AA/	.	8F/ 8c/	.	8f/ 8cc/	.	16ccc\	.
.	.	.	.	.	.	16ff\JJ)	.
=117	=117	=117	=117	=117	=117	=117	=117
4BB-/	.	4G/	.	4f/ 4dd-/	.	8ff\L	.
.	.	.	.	.	.	(8ff\	.
8BB-/	.	8G/	.	8f/ 8dd-/	.	16ddd-\L	.
.	.	.	.	.	.	16ff\JJ)	.
4C/	.	4g\	.	4en/ 4cc/	.	8een\L	.
.	.	.	.	.	.	(8ee\	.
8C/	.	8g\	.	8e/ 8cc/	.	16ccc\L	.
.	.	.	.	.	.	16ee\JJ)	.
=118	=118	=118	=118	=118	=118	=118	=118
4BB-/	.	4F/ 4G/	.	4d-/	.	8ff\L	.
.	.	.	.	.	.	(8ff\	.
8BB-/	.	8F/ 8G/	.	8d-/	.	16ddd-\L	.
.	.	.	.	.	.	16ff\JJ)	.
4C/	.	4En/ 4G/	.	4c/	.	8een\L	.
.	.	.	.	.	.	(8ee\	.
8C/	.	8E/ 8G/	.	8c/	.	16ccc\L	.
.	.	.	.	.	.	16ee\JJ)	.
=119	=119	=119	=119	=119	=119	=119	=119
4BB-/	p	4F/ 4G/	p	4d-/	p	8f/L	p
.	.	.	.	.	.	(8f/	.
8BB-/	.	8F/ 8G/	.	8d-/	.	16dd-/L	.
.	.	.	.	.	.	16f/JJ)	.
4C/	.	4F/ 4G/	.	4d-/	.	8f/L	.
.	.	.	.	.	.	(8f/	.
8C/	.	8F/ 8G/	.	8d-/	.	16dd-/L	.
.	.	.	.	.	.	16f/JJ)	.
=120	=120	=120	=120	=120	=120	=120	=120
2.r	.	2.r	.	2.r	.	2.dd-\	.
=121	=121	=121	=121	=121	=121	=121	=121
4C/	.	4En/ 4G/	.	4c/	.	8en/L	pp
.	.	.	.	.	.	(8e/	.
8C/	.	8E/ 8G/	.	8c/	.	16cc/L	.
.	.	.	.	.	.	16e/JJ)	.
4C/	.	4E/ 4G/	.	4c/	.	8e/L	.
.	.	.	.	.	.	(8e/	.
8C/	.	8E/ 8G/	.	8c/	.	16cc/L	.
.	.	.	.	.	.	16e/JJ)	.
=122	=122	=122	=122	=122	=122	=122	=122
2.r	.	2.r	.	2.r	.	2.cc\	pp
=123	=123	=123	=123	=123	=123	=123	=123
4FF/	.	(8F/L	.	4r	.	(2.cc\	.
.	.	8En/	.	.	.	.	.
8FF/	.	8F/J	.	8r	.	.	.
4FF/	.	8G-/L	.	8An/L	.	.	.
.	.	8F/	.	(8A/	.	.	.
8FF/	.	8G-/J	.	16e-/L	.	.	.
.	.	.	.	16A/JJ)	.	.	.
=124	=124	=124	=124	=124	=124	=124	=124
4FF/	.	8E-/L	.	4r	.	4.dd-\	.
.	.	8Dn/	.	.	.	.	.
8FF/	.	8E-/J	.	8r	.	.	.
4FF/	.	8En/L	.	8b-\L	.	4.gg\)	.
.	.	8D#/	.	(8b-\	.	.	.
8FF/	.	8E/J)	.	16dd-\L	.	.	.
.	.	.	.	16b-\JJ)	.	.	.
=125	=125	=125	=125	=125	=125	=125	=125
4FF/	.	(8F/L	.	4r	.	(2.cc\	.
.	.	8En/	.	.	.	.	.
8FF/	.	8F/J	.	8r	.	.	.
4FF/	.	8G-/L	.	8An/L	.	.	.
.	.	8F/	.	(8A/	.	.	.
8FF/	.	8G-/J	.	16e-/L	.	.	.
.	.	.	.	16A/JJ)	.	.	.
=126	=126	=126	=126	=126	=126	=126	=126
4FF/	.	8E-/L	.	4r	.	4.dd-\	.
.	.	8Dn/	.	.	.	.	.
8FF/	.	8E-/J	.	8r	.	.	.
4FF/	.	8En/L	.	8b-\L	.	4.gg\)	.
.	.	8D#/	.	(8b-\	.	.	.
8FF/	.	8E/J)	.	16dd-\L	.	.	.
.	.	.	.	16b-\JJ)	.	.	.
=127	=127	=127	=127	=127	=127	=127	=127
4FF/	.	(8F/L	.	4.a-/	.	(4.cc\	.
.	.	8En/	.	.	.	.	.
8FF/	.	8F/J)	.	.	.	.	.
4FF/	.	(8F/L	.	8B-/L	.	4dd-\	.
.	.	8E/	.	8B-/	.	.	.
8FF/	.	8F/J)	.	(16B-/L	.	8gg\)	.
.	.	.	.	16G/JJ)	.	.	.
=128	=128	=128	=128	=128	=128	=128	=128
4FF/	.	(8F/L	.	4A-/	.	(4.cc\	.
.	.	8En/	.	.	.	.	.
8FF/	.	8F/J)	.	(8a-/	.	.	.
4FF/	.	(8F/L	.	8b-/L)	.	4dd-\	.
.	.	8E/	.	8b-/	.	.	.
8FF/	.	8F/J)	.	(16b-/L	.	8gg\)	.
.	.	.	.	16g/JJ)	.	.	.
=129	=129	=129	=129	=129	=129	=129	=129
(8FF/L	.	(8F/L	.	4.a-/	.	4.cc\	.
8EEn/	.	8En/	.	.	.	.	.
8FF/J)	.	8F/J)	.	.	.	.	.
4r	.	(8a-\L	.	(8f/L	.	(8cc\L	.
.	.	8b-\	.	8en/	.	8dd-\	.
8r	.	8a-\J)	.	8f/J)	.	8cc\J)	.
=130	=130	=130	=130	=130	=130	=130	=130
(8FF/L	p	(8F/L	p	2.r	.	4r	.
8EEn/	.	8En/	.	.	.	.	.
8FF/J)	.	8F/J)	.	.	.	8r	pp
4r	.	4r	.	.	.	(8f/L	.
.	.	.	.	.	.	8en/	.
8r	.	8r	.	.	.	8f/J)	.
=131	=131	=131	=131	=131	=131	=131	=131
2.FF/	.	2.F/	.	2.r	.	2.f/	.
=132	=132	=132	=132	=132	=132	=132	=132
2.FF/ 2.C/	ppp	2.c\	ppp	2.An/	ppp	2.f/	ppp
=133	=133	=133	=133	=133	=133	=133	=133
*k[b-]	*k[b-]	*k[b-]	*k[b-]	*k[b-]	*k[b-]	*k[b-]	*k[b-]
*M2/2	*M2/2	*M2/2	*M2/2	*M2/2	*M2/2	*M2/2	*M2/2
8C\L	.	2A/	.	2d#/	.	2f#/	.
8c\	.	.	.	.	.	.	.
8c\	.	.	.	.	.	.	.
8c\J	.	.	.	.	.	.	.
8c\L	.	2B-/	.	2e/	.	4.g/	.
8c\	.	.	.	.	.	.	.
8c\	.	.	.	.	.	.	.
8c\J	.	.	.	.	.	8a-/	.
=134	=134	=134	=134	=134	=134	=134	=134
8c\L	.	8c\L	.	8f/L	.	8a/L	.
8c\	.	8f\	.	8a/	.	8e/	.
8c\	.	8f\	.	8a/	.	8f/	.
8c\J	.	8f\J	.	8a/J	.	8d/J	.
8c\L	.	8g\L	.	8b-\L	.	8c/L	.
8c\	.	8g\	.	8b-\	.	8d/	.
8c\	.	8g\	.	8b-\	.	8e/	.
8c\J	.	8g\J	.	8b-\J	.	8f/J	.
=135	=135	=135	=135	=135	=135	=135	=135
8c\L	.	8g\L	.	8b-\L	.	8g/L	.
8c\	.	8g\	.	8b-\	.	8a/	.
8c\	.	8g\	.	8b-\	.	8b-/	.
8c\J	.	8g\J	.	8b-\J	.	8cc/J	.
8c\L	.	8g\L	.	8b-\L	.	8dd\L	.
8c\	.	8g\	.	8b-\	.	8ee\	.
8c\	.	8g\	.	8b-\	.	8ff\	.
8c\J	.	8g\J	.	8b-\J	.	8gg\J	.
=136	=136	=136	=136	=136	=136	=136	=136
8c\L	.	8f\L	.	8a\L	.	8aa\L	.
8c\	.	8cc\	.	8gg\	.	8bb-\	.
8c\	.	8cc\	.	8aa\	.	8ccc\	.
8c\J	.	8cc\J	.	8bb-\J	.	8ddd\J	.
8c\L	.	8cc\L	.	8aa\L	.	8ccc\L	.
8c\	.	8cc\	.	8ff\	.	8aa\	.
8c\	.	8cc\	.	8gg\	.	8bb-\	.
8c\J	.	8b-\J	.	8ee\J	.	8gg\J	.
=137	=137	=137	=137	=137	=137	=137	=137
8f\L	.	4a\	.	8cc/L	.	8ff\L	.
8f\	.	.	.	8a/	.	8cc\	.
8f\	.	4r	.	8a/	.	8cc\	.
8f\J	.	.	.	8a/J	.	8cc\J	.
8f\L	.	2r	.	8a/L	.	8ff\L	.
8f\	.	.	.	8a/	.	8cc#\	.
8f\	.	.	.	8a/	.	8cc#\	.
8f\J	.	.	.	8a/J	.	8cc#\J	.
=138	=138	=138	=138	=138	=138	=138	=138
8f\L	.	8f\L	.	8dd\L	.	8ff\L	.
8f\	.	8b-\	.	8b-\	.	8dd\	.
8f\	.	8b-\	.	8b-\	.	8dd\	.
8f\J	.	8b-\J	.	8b-\J	.	8dd\J	.
8f\L	.	8g\L	.	8ee\L	.	8bb-\L	.
8f\	.	8cc\	.	8b-\	.	8ee\	.
8f\	.	8cc\	.	8b-\	.	8ee\	.
8f\J	.	8cc\J	.	8b-\J	.	8ee\J	.
=139	=139	=139	=139	=139	=139	=139	=139
8f\L	.	8a\L	.	8cc/L	.	8gg\L	.
8f\	.	8cc\	.	8a/	.	8ff\	.
8f\	.	8cc\	.	8a/	.	8ff\	.
8f\J	.	8cc\J	.	8a/J	.	8ff\J	.
8f\L	.	8cc\L	.	4a/	.	8ff\L	.
8f\	.	8a\	.	.	.	8cc#\	.
8f\	.	8a\	.	4r	.	8cc#\	.
8f\J	.	8a\J	.	.	.	8cc#\J	.
=140	=140	=140	=140	=140	=140	=140	=140
8f\L	.	8f\L	.	8dd\L	.	8ff\L	.
8f\	.	8b-\	.	8b-\	.	8dd\	.
8f\	.	8b-\	.	8b-\	.	8dd\	.
8f\J	.	8b-\J	.	8b-\J	.	8dd\J	.
8f\L	.	8g\L	.	8b-\L	.	8bb-\L	.
8f\	.	8cc\	.	8b-\	.	8ee\	.
8f\	.	8cc\	.	8b-\	.	8ee\	.
8f\J	.	8cc\J	.	8b-\J	.	8ee\J	.
=141	=141	=141	=141	=141	=141	=141	=141
8f\L	.	8cc\L	.	8a\L	.	4.ccc\	.
8f\	.	8a\	.	8ff\	.	.	.
8f\	.	8a\	.	8ff\	.	.	.
8f\J	.	8a\J	.	8ff\J	.	8fff\	.
8c\L	.	8b-\L	.	8gg\L	.	8fff\L	.
8c\	.	8b-\	.	8gg\	.	8eee\	.
8c\	.	8b-\	.	8gg\	.	8ddd\	.
8c\J	.	8b-\J	.	8gg\J	.	8ccc\J	.
=142	=142	=142	=142	=142	=142	=142	=142
8f\L	.	8a\L	.	8ff\L	.	4.ccc\	.
8f\	.	8a\	.	8ff\	.	.	.
8f\	.	8a\	.	8ff\	.	.	.
8f\J	.	8a\J	.	8ff\J	.	8fff\	.
8c\L	.	8b-\L	.	8gg\L	.	8fff\L	.
8c\	.	8b-\	.	8gg\	.	8eee\	.
8c\	.	8b-\	.	8gg\	.	8ddd\	.
8c\J	.	8b-\J	.	8gg\J	.	8ccc\J	.
=143	=143	=143	=143	=143	=143	=143	=143
8f\L	.	8a\L	.	8ff\L	.	4.ccc\	.
8f\	.	8a\	.	8ff\	.	.	.
8f\	.	8a\	.	8ff\	.	.	.
8f\J	.	8a\J	.	8ff\J	.	8fff\	.
8c\L	.	8b-\L	.	8gg\L	.	8fff\L	.
8c\	.	8b-\	.	8gg\	.	8eee\	.
8c\	.	8b-\	.	8gg\	.	8ddd\	.
8c\J	.	8b-\J	.	8gg\J	.	8ccc\J	.
=144	=144	=144	=144	=144	=144	=144	=144
8f\L	.	8a\L	.	8ff\L	.	4.ccc\	.
8f\	.	8a\	.	8ff\	.	.	.
8f\	.	8a\	.	8ff\	.	.	.
8f\J	.	8a\J	.	8ff\J	.	8fff\	.
8c\L	.	8g\L	.	8ee\L	.	8fff\L	.
8c\	.	8g\	.	8ee\	.	8eee\	.
8c\	.	8g\	.	8ee\	.	8ddd\	.
8c\J	.	8g\J	.	8ee\J	.	8ccc\J	.
=145	=145	=145	=145	=145	=145	=145	=145
8d\L	.	8f\L	.	8bn/L	.	8fff\L	.
8D\	.	8Bn\	.	8f/	.	8fff\	.
8D\	.	8B\	.	8f/	.	8eee\	.
8D\J	.	8B\J	.	8f/J	.	8ddd\J	.
8D\L	.	8B/L	.	8f/L	.	8ccc\L	.
8D\	.	8B/	.	8f/	.	8bbn\	.
8D\	.	8B/	.	8f/	.	8aa\	.
8D\J	.	8B/J	.	8f/J	.	8gg\J	.
=146	=146	=146	=146	=146	=146	=146	=146
8GG/L	.	8Bn/L	.	8d/L	.	8ff\L	.
8GG/	.	8B/	.	8d/	.	8ee\	.
8GG/	.	8B/	.	8d/	.	8dd\	.
8GG/J	.	8B/J	.	8d/J	.	8cc\J	.
8GG/L	.	8B/L	.	8d/L	.	8bn/L	.
8GG/	.	8B/	.	8d/	.	8a/	.
8GG/	.	8B/	.	8d/	.	8g/	.
8GG/J	.	8B/J	.	8d/J	.	8f/J	.
=147	=147	=147	=147	=147	=147	=147	=147
8C/L	.	8G/L	.	8e/L	.	8e/L	.
8C/	.	8G/	.	8e/	.	8g/	.
8C/	.	8G/	.	8e/	.	8b-/	.
8C/J	.	8G/J	.	8e/J	.	8cc/J	.
8C/L	.	8G/L	.	8B-/L 8e/	.	8ee\L	.
8C/	.	8G/	.	8B-/ 8e/	.	8gg\	.
8C/	.	8G/	.	8B-/ 8e/	.	8bb-\	.
8C/J	.	8G/J	.	8B-/J 8e/	.	8bb-\J	.
=148	=148	=148	=148	=148	=148	=148	=148
8D\L	.	8F/L	.	8A/L 8f/	.	8bb-\L	.
8D\	.	8F/	.	8A/ 8f/	.	8aa\	.
8D\	.	8F/	.	8A/ 8f/	.	8bb-\	.
8D\J	.	8F/J	.	8A/J 8f/	.	8ccc\J	.
8BB-/L	.	8B-/L	.	8d/L 8f/	.	8ddd\L	.
8BB-/	.	8B-/	.	8d/ 8f/	.	8eee\	.
8BB-/	.	8B-/	.	8d/ 8f/	.	8fff\	.
8BB-/J	.	8B-/J	.	8d/J 8f/	.	8fff\J	.
=149	=149	=149	=149	=149	=149	=149	=149
8C/L	.	8c\L	.	8f\L 8a\	.	4fff\	.
8C/	.	8c\	.	8a\ 8ff\	.	.	.
8C/	.	8c\	.	8a\ 8ff\	.	4ggg\	.
8C/J	.	8c\J	.	8a\J 8ff\	.	.	.
8C/L	.	8c\L	.	8a\L 8ff\	.	4aaa\	.
8C/	.	8c\	.	8a\ 8ff\	.	.	.
8C/	.	8c\	.	8a\ 8ff\	.	4bbb-\	.
8C/J	.	8c\J	.	8a\J 8ff\	.	.	.
=150	=150	=150	=150	=150	=150	=150	=150
8CC/L	f	8C/L 8c/	f	8g\L 8ee\	f	8cccc'\L	f
8CC/	.	8C/ 8c/	.	8g\ 8ee\	.	(8ee\	.
8CC/	.	8C/ 8c/	.	8g\ 8ee\	.	8ddd\	.
8CC/J	.	8C/J 8c/	.	8g\J 8ee\	.	8ccc\J)	.
8CC/L	.	8C/L 8c/	.	8g\L 8ee\	.	(8ccc\L	.
8CC/	.	8C/ 8c/	.	8g\ 8ee\	.	8bb-\	.
8CC/	.	8C/ 8c/	.	8g\ 8ee\	.	8aa\	.
8CC/J	.	8C/J 8c/	.	8g\J 8ee\	.	8gg\J)	.
=151	=151	=151	=151	=151	=151	=151	=151
4FF/	.	4F/ 4c/	.	4a\ 4ff\	.	4ff\	.
4r	.	4r	.	4r	.	4r	.
4FF/	.	4f\	.	4ee-\	.	4aa\	.
8r	.	8r	.	8r	.	8r	.
8FF/	.	8F/	.	8ee-\	.	8aa\	.
=152	=152	=152	=152	=152	=152	=152	=152
4BB-/	.	4B-/	.	4dd\	.	4bb-\	.
4r	.	4r	.	4r	.	4r	.
4FF/	.	4f\	.	4ee-\	.	4aa\	.
8r	.	8r	.	8r	.	8r	.
8FF/	.	8F/	.	8ee-\	.	8aa\	.
=153	=153	=153	=153	=153	=153	=153	=153
4BB-/	.	4B-/	.	4dd\	.	4bb-\	.
4r	.	4r	.	4r	.	4r	.
4GG/	.	4f\	.	4dd\	.	4bbn\	.
8r	.	8r	.	8r	.	8r	.
8GG/	.	8G/	.	8dd\	.	8bb\	.
=154	=154	=154	=154	=154	=154	=154	=154
4CC/	.	4g\	.	4ee\	.	4ccc\	.
4r	.	4r	.	4r	.	4r	.
4GG/	.	4bn\	.	4dd\	.	4fff\	.
8r	.	8r	.	8r	.	8r	.
8GG/	.	8b\	.	8dd\	.	8fff\	.
=155	=155	=155	=155	=155	=155	=155	=155
4CC/	.	4e\ 4cc\	.	4cc\ 4ee\	.	8eee\L	.
.	.	.	.	.	.	8ccc\	.
4r	.	4r	.	4r	.	8ccc\	.
.	.	.	.	.	.	8ccc\J	.
2r	.	2r	.	2r	.	8ccc\L	.
.	.	.	.	.	.	8ccc\	.
.	.	.	.	.	.	8ccc\	.
.	.	.	.	.	.	8ccc\J	.
=156	=156	=156	=156	=156	=156	=156	=156
1r	.	2F#/	p	1r	.	4bb-'\	.
.	.	.	.	.	.	2bb-\	.
.	.	4.G/	.	.	.	.	.
.	.	.	.	.	.	4ee\	.
.	.	8G#/	.	.	.	.	.
=157	=157	=157	=157	=157	=157	=157	=157
1r	.	8A/L	.	1r	.	4ff'\	.
.	.	8E/	.	.	.	.	.
.	.	8F/	.	.	.	2ff\	.
.	.	8D/J	.	.	.	.	.
.	.	8C/L	.	.	.	.	.
.	.	8D/	.	.	.	.	.
.	.	8E/	.	.	.	4cc\	.
.	.	8F/J	.	.	.	.	.
=158	=158	=158	=158	=158	=158	=158	=158
1r	.	8G/L	.	1r	.	4b-\	.
.	.	8A/	.	.	.	.	.
.	.	8B-/	.	.	.	2b-\	.
.	.	8c/J	.	.	.	.	.
.	.	8d\L	.	.	.	.	.
.	.	8e\	.	.	.	.	.
.	.	8f\	.	.	.	4e/	.
.	.	8g\J	.	.	.	.	.
=159	=159	=159	=159	=159	=159	=159	=159
1r	.	8a\L	.	1r	.	4f/	.
.	.	8b-\	.	.	.	.	.
.	.	8cc\	.	.	.	2f/	.
.	.	8dd\J	.	.	.	.	.
.	.	4cc\	.	.	.	.	.
.	.	4r	.	.	.	4c/	.
=160	=160	=160	=160	=160	=160	=160	=160
2FF#/	p	4b-'\	p	4bb-'\	p	1r	.
.	.	2b-\	.	2bb-\	.	.	.
4.GG/	.	.	.	.	.	.	.
.	.	4e\	.	4ee\	.	.	.
8GG#/	.	.	.	.	.	.	.
=161	=161	=161	=161	=161	=161	=161	=161
8AA/L	.	4f\	.	4ff\	.	2gg#\	.
8EE/	.	.	.	.	.	.	.
8FF/	.	2f\	.	2ff\	.	.	.
8DD/J	.	.	.	.	.	.	.
8CC/L	.	.	.	.	.	4aa\	.
8DD/	.	.	.	.	.	.	.
8EE/	.	4c\	.	4cc\	.	4ff\	.
8FF/J	.	.	.	.	.	.	.
=162	=162	=162	=162	=162	=162	=162	=162
8GG/L	.	4B-/	.	4b-\	.	1r	.
8AA/	.	.	.	.	.	.	.
8BB-/	.	2B-/	.	2b-\	.	.	.
8C/J	.	.	.	.	.	.	.
8D\L	.	.	.	.	.	.	.
8E\	.	.	.	.	.	.	.
8F\	.	4E/	.	4e/	.	.	.
8G\J	.	.	.	.	.	.	.
=163	=163	=163	=163	=163	=163	=163	=163
8A\L	.	4F/	.	4f/	.	(2eee\	.
8B-\	.	.	.	.	.	.	.
8c\	.	2F/	.	2f/	.	.	.
8d\J	.	.	.	.	.	.	.
4c\	.	.	.	.	.	4fff\	.
4r	.	4C/	.	4c/	.	4ccc\)	.
=164	=164	=164	=164	=164	=164	=164	=164
4BB-/	.	8E/L	.	2f#/	.	2ff#\	.
.	.	8C/	.	.	.	.	.
2BB-/	.	8E/	.	.	.	.	.
.	.	8C/J	.	.	.	.	.
.	.	8E/L	.	4.g/	.	4.gg\	.
.	.	8C/	.	.	.	.	.
4CC/	.	8E/	.	.	.	.	.
.	.	8C/J	.	8g#/	.	8gg#\	.
=165	=165	=165	=165	=165	=165	=165	=165
4AA/	.	8F/L	.	8a/L	.	8aa\L	.
.	.	8C/	.	8e/	.	8ee\	.
2AA/	.	8F/	.	8f/	.	8ff\	.
.	.	8C/J	.	8d/J	.	8dd\J	.
.	.	8F/L	.	8c/L	.	8cc\L	.
.	.	8C/	.	8d/	.	8dd\	.
4CC/	.	8F/	.	8e/	.	8ee\	.
.	.	8C/J	.	8f/J	.	8ff\J	.
=166	=166	=166	=166	=166	=166	=166	=166
4BB-/	.	8E/L	.	2f#/	.	2ff#\	.
.	.	8C/	.	.	.	.	.
2BB-/	.	8E/	.	.	.	.	.
.	.	8C/J	.	.	.	.	.
.	.	8E/L	.	4.g/	.	4.gg\	.
.	.	8C/	.	.	.	.	.
4CC/	.	8E/	.	.	.	.	.
.	.	8C/J	.	8g#/	.	8gg#\	.
=167	=167	=167	=167	=167	=167	=167	=167
4AA/	.	8F/L	.	8a/L	.	8aa\L	.
.	.	8C/	.	8e/	.	8ee\	.
2AA/	.	8F/	.	8f/	.	8ff\	.
.	.	8C/J	.	8d/J	.	8dd\J	.
.	.	8F/L	.	8c/L	.	8cc\L	.
.	.	8C/	.	8d/	.	8dd\	.
4CC/	.	8F/	.	8e/	.	8ee\	.
.	.	8C/J	.	8f/J	.	8ff\J	.
=168	=168	=168	=168	=168	=168	=168	=168
2FF#/	f	2F#/	f	2f#/	f	2ff#\	f
4.GG/	.	4.G/	.	4.g/	.	4.gg\	.
8GG#/	.	8G#/	.	8g#/	.	8gg#\	.
=169	=169	=169	=169	=169	=169	=169	=169
8AA/L	.	8A/L	.	8a/L	.	8aa\L	.
8EE/	.	8E/	.	8e/	.	8ee\	.
8FF/	.	8F/	.	8f/	.	8ff\	.
8DD/J	.	8D/J	.	8d/J	.	8dd\J	.
8CC/L	.	8C/L	.	8c/L	.	8cc\L	.
8DD/	.	8D/	.	8d/	.	8dd\	.
8EE/	.	8E/	.	8e/	.	8ee\	.
8FF/J	.	8F/J	.	8f/J	.	8ff\J	.
=170	=170	=170	=170	=170	=170	=170	=170
8GG/L	.	8G/L	.	8g/L	.	8gg\L	.
8AA/	.	8A/	.	8a/	.	8aa\	.
8BB-/	.	8B-/	.	8b-/	.	8bb-\	.
8C/J	.	8c/J	.	8cc/J	.	8ccc\J	.
8C/L	.	8c\L	.	8dd\L	.	8ddd\L	.
8C/	.	8c\	.	8cc\	.	8eee\	.
8C/	.	8c\	.	8dd\	.	8fff\	.
8C/J	.	8c\J	.	8ee\J	.	8ggg\J	.
=171	=171	=171	=171	=171	=171	=171	=171
4F\	.	4c\	.	4ff\	.	4aaa'\	.
4r	.	4r	.	4r	.	4bbb-'\	.
2r	.	2r	.	2r	.	4cccc'\	.
.	.	.	.	.	.	4r	.
=172	=172	=172	=172	=172	=172	=172	=172
8G\L	p	8B-\L	p	8e/L	p	1r	.
8A\	.	8c\	.	8f/	.	.	.
8B-\	.	8d\	.	8g/	.	.	.
8c\J	.	8e\J	.	8a/J	.	.	.
8d\L	.	8f\L	.	8b-\L	.	.	.
8e\	.	8g\	.	8cc\	.	.	.
8f\	.	8a\	.	8dd\	.	.	.
8g\J	.	8b-\J	.	8ee\J	.	.	.
=173	=173	=173	=173	=173	=173	=173	=173
4a\	.	4cc'\	.	4ff'\	.	8f/L	.
.	.	.	.	.	.	8g/	p
4r	.	4ee'\	.	4gg'\	.	8a/	.
.	.	.	.	.	.	8b-/J	.
2r	.	4ff'\	.	4aa'\	.	8cc\L	.
.	.	.	.	.	.	8dd\	.
.	.	4r	.	4r	.	8ee\	.
.	.	.	.	.	.	8ff\J	.
=174	=174	=174	=174	=174	=174	=174	=174
8C/L	f	8G/L	f	8g/L	f	8ee\L	f
8BB-/	.	8A/	.	8a/	.	8ff\	.
8AA/	.	8B-/	.	8b-/	.	8gg\	.
8GG/J	.	8c/J	.	8cc/J	.	8aa\J	.
8FF/L	.	8d\L	.	8dd\L	.	8bb-\L	.
8EE/	.	8e\	.	8ee\	.	8ccc\	.
8DD/	.	8f\	.	8ff\	.	8ddd\	.
8CC/J	.	8g\J	.	8gg\J	.	8eee\J	.
=175	=175	=175	=175	=175	=175	=175	=175
4FF/	.	4A\ 4f\	.	4a\ 4ff\	.	4fff\	.
4r	.	4r	.	4r	.	4r	.
2r	.	2r	.	2r	.	2r	.
==	==	==	==	==	==	==	==
*-	*-	*-	*-	*-	*-	*-	*-
!!!ENC: Craig Stuart Sapp
!!!END: 2004/09/11/
